(www.thuijzer.nl/image2gcode)
(2021-12-26 10:02:58)
(bit size: 1mm)
(x size: 100mm)
(max z: 10mm)

G21 (Programming in millimeters)
G90 (Absolute programming)
G92 X0 Y0 Z10 (Tell the machine it is at 0, 0, 10)
G00 X0 Y-0.5 Z10 (Starting position)

G01 X0.916667 Y-0.5 Z0 F1000
G01 X45.5 Y-0.5 Z0 F1000
G01 X45.916667 Y-0.5 Z0.117647 F1000
G01 X46.75 Y-0.5 Z0.117647 F1000
G01 X47.166667 Y-0.5 Z0.078431 F1000
G01 X47.583333 Y-0.5 Z0.117647 F1000
G01 X48 Y-0.5 Z0.117647 F1000
G01 X48.416667 Y-0.5 Z0.130719 F1000
G01 X59.666667 Y-0.5 Z0.130719 F1000
G01 X60.083333 Y-0.5 Z0.117647 F1000
G01 X60.916667 Y-0.5 Z0.117647 F1000
G01 X61.333333 Y-0.5 Z0.065359 F1000
G01 X62.166667 Y-0.5 Z0.065359 F1000
G01 X62.583333 Y-0.5 Z0.052288 F1000
G01 X63 Y-0.5 Z0.052288 F1000
G01 X63.416667 Y-0.5 Z0 F1000
G01 X99.666667 Y-0.5 Z0 F1000
G01 X99.666667 Y-0.916667 Z0 F1000
G01 X99.666667 Y-1.333333 Z0 F1000
G01 X65.916667 Y-1.333333 Z0 F1000
G01 X65.5 Y-1.333333 Z0.052288 F1000
G01 X65.083333 Y-1.333333 Z0.052288 F1000
G01 X64.666667 Y-1.333333 Z0.117647 F1000
G01 X64.25 Y-1.333333 Z0.117647 F1000
G01 X63.833333 Y-1.333333 Z0.130719 F1000
G01 X45.5 Y-1.333333 Z0.130719 F1000
G01 X45.083333 Y-1.333333 Z0.117647 F1000
G01 X43.416667 Y-1.333333 Z0.117647 F1000
G01 X43 Y-1.333333 Z0 F1000
G01 X0.5 Y-1.333333 Z0 F1000
G01 X0.5 Y-1.75 Z0 F1000
G01 X0.5 Y-2.166667 Z0 F1000
G01 X40.916667 Y-2.166667 Z0 F1000
G01 X41.333333 Y-2.166667 Z0.052288 F1000
G01 X41.75 Y-2.166667 Z0.052288 F1000
G01 X42.166667 Y-2.166667 Z0.117647 F1000
G01 X42.583333 Y-2.166667 Z0.117647 F1000
G01 X43 Y-2.166667 Z0.130719 F1000
G01 X65.916667 Y-2.166667 Z0.130719 F1000
G01 X66.333333 Y-2.166667 Z0.104575 F1000
G01 X66.75 Y-2.166667 Z0.117647 F1000
G01 X67.583333 Y-2.166667 Z0.117647 F1000
G01 X68 Y-2.166667 Z0 F1000
G01 X99.666667 Y-2.166667 Z0 F1000
G01 X99.666667 Y-2.583333 Z0 F1000
G01 X99.666667 Y-3 Z0 F1000
G01 X70.083333 Y-3 Z0 F1000
G01 X69.666667 Y-3 Z0.117647 F1000
G01 X68.833333 Y-3 Z0.117647 F1000
G01 X68.416667 Y-3 Z0.130719 F1000
G01 X53 Y-3 Z0.130719 F1000
G01 X52.583333 Y-3 Z0.183007 F1000
G01 X52.166667 Y-3 Z0.20915 F1000
G01 X51.333333 Y-3 Z0.20915 F1000
G01 X50.916667 Y-3 Z0.248366 F1000
G01 X48 Y-3 Z0.248366 F1000
G01 X47.583333 Y-3 Z0.261438 F1000
G01 X46.75 Y-3 Z0.261438 F1000
G01 X46.333333 Y-3 Z0.248366 F1000
G01 X45.916667 Y-3 Z0.130719 F1000
G01 X40.916667 Y-3 Z0.130719 F1000
G01 X40.5 Y-3 Z0.117647 F1000
G01 X39.666667 Y-3 Z0.117647 F1000
G01 X39.25 Y-3 Z0 F1000
G01 X0.5 Y-3 Z0 F1000
G01 X0.5 Y-3.416667 Z0 F1000
G01 X0.5 Y-3.833333 Z0 F1000
G01 X38 Y-3.833333 Z0 F1000
G01 X38.416667 Y-3.833333 Z0.052288 F1000
G01 X38.833333 Y-3.833333 Z0.078431 F1000
G01 X39.25 Y-3.833333 Z0.130719 F1000
G01 X45.916667 Y-3.833333 Z0.130719 F1000
G01 X46.333333 Y-3.833333 Z0.261438 F1000
G01 X46.75 Y-3.833333 Z0.261438 F1000
G01 X47.166667 Y-3.833333 Z0.287582 F1000
G01 X48 Y-3.833333 Z0.287582 F1000
G01 X48.416667 Y-3.833333 Z0.222222 F1000
G01 X50.5 Y-3.833333 Z0.222222 F1000
G01 X50.916667 Y-3.833333 Z0.313725 F1000
G01 X51.75 Y-3.833333 Z0.313725 F1000
G01 X52.166667 Y-3.833333 Z0.339869 F1000
G01 X53 Y-3.833333 Z0.339869 F1000
G01 X53.416667 Y-3.833333 Z0.300654 F1000
G01 X54.25 Y-3.833333 Z0.300654 F1000
G01 X54.666667 Y-3.833333 Z0.261438 F1000
G01 X55.083333 Y-3.833333 Z0.313725 F1000
G01 X55.5 Y-3.833333 Z0.339869 F1000
G01 X56.333333 Y-3.833333 Z0.339869 F1000
G01 X56.75 Y-3.833333 Z0.287582 F1000
G01 X57.166667 Y-3.833333 Z0.27451 F1000
G01 X57.583333 Y-3.833333 Z0.261438 F1000
G01 X58 Y-3.833333 Z0.20915 F1000
G01 X58.833333 Y-3.833333 Z0.20915 F1000
G01 X59.25 Y-3.833333 Z0.183007 F1000
G01 X59.666667 Y-3.833333 Z0.130719 F1000
G01 X70.083333 Y-3.833333 Z0.130719 F1000
G01 X70.5 Y-3.833333 Z0.078431 F1000
G01 X70.916667 Y-3.833333 Z0.052288 F1000
G01 X71.333333 Y-3.833333 Z0 F1000
G01 X99.666667 Y-3.833333 Z0 F1000
G01 X99.666667 Y-4.25 Z0 F1000
G01 X99.666667 Y-4.666667 Z0 F1000
G01 X72.583333 Y-4.666667 Z0 F1000
G01 X72.166667 Y-4.666667 Z0.065359 F1000
G01 X71.75 Y-4.666667 Z0.117647 F1000
G01 X71.333333 Y-4.666667 Z0.130719 F1000
G01 X62.583333 Y-4.666667 Z0.130719 F1000
G01 X62.166667 Y-4.666667 Z0.20915 F1000
G01 X61.75 Y-4.666667 Z0.287582 F1000
G01 X61.333333 Y-4.666667 Z0.313725 F1000
G01 X60.5 Y-4.666667 Z0.313725 F1000
G01 X60.083333 Y-4.666667 Z0.300654 F1000
G01 X59.25 Y-4.666667 Z0.300654 F1000
G01 X58.833333 Y-4.666667 Z0.313725 F1000
G01 X57.583333 Y-4.666667 Z0.313725 F1000
G01 X57.166667 Y-4.666667 Z0.27451 F1000
G01 X56.75 Y-4.666667 Z0.287582 F1000
G01 X56.333333 Y-4.666667 Z0.339869 F1000
G01 X55.5 Y-4.666667 Z0.339869 F1000
G01 X55.083333 Y-4.666667 Z0.313725 F1000
G01 X54.666667 Y-4.666667 Z0.169935 F1000
G01 X54.25 Y-4.666667 Z0.169935 F1000
G01 X53.833333 Y-4.666667 Z0.222222 F1000
G01 X52.583333 Y-4.666667 Z0.222222 F1000
G01 X52.166667 Y-4.666667 Z0.169935 F1000
G01 X50.5 Y-4.666667 Z0.169935 F1000
G01 X50.083333 Y-4.666667 Z0.026144 F1000
G01 X49.666667 Y-4.666667 Z0.156863 F1000
G01 X49.25 Y-4.666667 Z0.313725 F1000
G01 X48.416667 Y-4.666667 Z0.313725 F1000
G01 X48 Y-4.666667 Z0.287582 F1000
G01 X47.166667 Y-4.666667 Z0.287582 F1000
G01 X46.75 Y-4.666667 Z0.20915 F1000
G01 X46.333333 Y-4.666667 Z0.130719 F1000
G01 X40.083333 Y-4.666667 Z0.130719 F1000
G01 X39.666667 Y-4.666667 Z0.20915 F1000
G01 X39.25 Y-4.666667 Z0.248366 F1000
G01 X38.416667 Y-4.666667 Z0.248366 F1000
G01 X38 Y-4.666667 Z0.20915 F1000
G01 X37.583333 Y-4.666667 Z0.117647 F1000
G01 X37.166667 Y-4.666667 Z0.117647 F1000
G01 X36.75 Y-4.666667 Z0 F1000
G01 X0.5 Y-4.666667 Z0 F1000
G01 X0.5 Y-5.083333 Z0 F1000
G01 X0.5 Y-5.5 Z0 F1000
G01 X35.916667 Y-5.5 Z0 F1000
G01 X36.333333 Y-5.5 Z0.065359 F1000
G01 X36.75 Y-5.5 Z0.091503 F1000
G01 X37.166667 Y-5.5 Z0.248366 F1000
G01 X37.583333 Y-5.5 Z0.261438 F1000
G01 X38.833333 Y-5.5 Z0.261438 F1000
G01 X39.25 Y-5.5 Z0.248366 F1000
G01 X39.666667 Y-5.5 Z0.20915 F1000
G01 X40.083333 Y-5.5 Z0.130719 F1000
G01 X47.583333 Y-5.5 Z0.130719 F1000
G01 X48 Y-5.5 Z0.261438 F1000
G01 X48.416667 Y-5.5 Z0.313725 F1000
G01 X49.666667 Y-5.5 Z0.313725 F1000
G01 X50.083333 Y-5.5 Z0.169935 F1000
G01 X50.5 Y-5.5 Z0.169935 F1000
G01 X50.916667 Y-5.5 Z0.026144 F1000
G01 X56.333333 Y-5.5 Z0.026144 F1000
G01 X56.75 Y-5.5 Z0.169935 F1000
G01 X58.833333 Y-5.5 Z0.169935 F1000
G01 X59.25 Y-5.5 Z0.339869 F1000
G01 X60.916667 Y-5.5 Z0.339869 F1000
G01 X61.333333 Y-5.5 Z0.313725 F1000
G01 X61.75 Y-5.5 Z0.287582 F1000
G01 X62.166667 Y-5.5 Z0.20915 F1000
G01 X62.583333 Y-5.5 Z0.130719 F1000
G01 X72.583333 Y-5.5 Z0.130719 F1000
G01 X73 Y-5.5 Z0.091503 F1000
G01 X73.416667 Y-5.5 Z0.065359 F1000
G01 X73.833333 Y-5.5 Z0 F1000
G01 X99.666667 Y-5.5 Z0 F1000
G01 X99.666667 Y-5.916667 Z0 F1000
G01 X99.666667 Y-6.333333 Z0 F1000
G01 X75.083333 Y-6.333333 Z0 F1000
G01 X74.666667 Y-6.333333 Z0.117647 F1000
G01 X74.25 Y-6.333333 Z0.117647 F1000
G01 X73.833333 Y-6.333333 Z0.130719 F1000
G01 X61.333333 Y-6.333333 Z0.130719 F1000
G01 X60.916667 Y-6.333333 Z0.183007 F1000
G01 X60.5 Y-6.333333 Z0.261438 F1000
G01 X60.083333 Y-6.333333 Z0.339869 F1000
G01 X59.25 Y-6.333333 Z0.339869 F1000
G01 X58.833333 Y-6.333333 Z0.287582 F1000
G01 X58 Y-6.333333 Z0.287582 F1000
G01 X57.583333 Y-6.333333 Z0.169935 F1000
G01 X57.166667 Y-6.333333 Z0.169935 F1000
G01 X56.75 Y-6.333333 Z0.026144 F1000
G01 X51.75 Y-6.333333 Z0.026144 F1000
G01 X51.333333 Y-6.333333 Z0.169935 F1000
G01 X50.916667 Y-6.333333 Z0.222222 F1000
G01 X50.5 Y-6.333333 Z0.300654 F1000
G01 X49.666667 Y-6.333333 Z0.300654 F1000
G01 X49.25 Y-6.333333 Z0.261438 F1000
G01 X48.833333 Y-6.333333 Z0.261438 F1000
G01 X48.416667 Y-6.333333 Z0.130719 F1000
G01 X39.25 Y-6.333333 Z0.130719 F1000
G01 X38.833333 Y-6.333333 Z0.183007 F1000
G01 X38.416667 Y-6.333333 Z0.261438 F1000
G01 X37.583333 Y-6.333333 Z0.261438 F1000
G01 X37.166667 Y-6.333333 Z0.248366 F1000
G01 X36.333333 Y-6.333333 Z0.248366 F1000
G01 X35.916667 Y-6.333333 Z0.091503 F1000
G01 X35.5 Y-6.333333 Z0.013072 F1000
G01 X35.083333 Y-6.333333 Z0 F1000
G01 X0.5 Y-6.333333 Z0 F1000
G01 X0.5 Y-6.75 Z0 F1000
G01 X0.5 Y-7.166667 Z0 F1000
G01 X34.25 Y-7.166667 Z0 F1000
G01 X34.666667 Y-7.166667 Z0.052288 F1000
G01 X35.083333 Y-7.166667 Z0.183007 F1000
G01 X35.5 Y-7.166667 Z0.20915 F1000
G01 X35.916667 Y-7.166667 Z0.248366 F1000
G01 X37.166667 Y-7.166667 Z0.248366 F1000
G01 X37.583333 Y-7.166667 Z0.20915 F1000
G01 X38 Y-7.166667 Z0.130719 F1000
G01 X42.166667 Y-7.166667 Z0.130719 F1000
G01 X42.583333 Y-7.166667 Z0.300654 F1000
G01 X44.25 Y-7.166667 Z0.300654 F1000
G01 X44.666667 Y-7.166667 Z0.183007 F1000
G01 X45.083333 Y-7.166667 Z0.130719 F1000
G01 X49.25 Y-7.166667 Z0.130719 F1000
G01 X49.666667 Y-7.166667 Z0.300654 F1000
G01 X50.083333 Y-7.166667 Z0.300654 F1000
G01 X50.5 Y-7.166667 Z0.313725 F1000
G01 X51.333333 Y-7.166667 Z0.313725 F1000
G01 X51.75 Y-7.166667 Z0.169935 F1000
G01 X52.166667 Y-7.166667 Z0.026144 F1000
G01 X56.333333 Y-7.166667 Z0.026144 F1000
G01 X56.75 Y-7.166667 Z0.169935 F1000
G01 X57.166667 Y-7.166667 Z0.313725 F1000
G01 X58 Y-7.166667 Z0.313725 F1000
G01 X58.416667 Y-7.166667 Z0.287582 F1000
G01 X58.833333 Y-7.166667 Z0.287582 F1000
G01 X59.25 Y-7.166667 Z0.261438 F1000
G01 X59.666667 Y-7.166667 Z0.130719 F1000
G01 X74.666667 Y-7.166667 Z0.130719 F1000
G01 X75.083333 Y-7.166667 Z0.091503 F1000
G01 X75.5 Y-7.166667 Z0.065359 F1000
G01 X75.916667 Y-7.166667 Z0 F1000
G01 X99.666667 Y-7.166667 Z0 F1000
G01 X99.666667 Y-7.583333 Z0 F1000
G01 X99.666667 Y-8 Z0 F1000
G01 X76.75 Y-8 Z0 F1000
G01 X76.333333 Y-8 Z0.013072 F1000
G01 X75.916667 Y-8 Z0.091503 F1000
G01 X75.5 Y-8 Z0.130719 F1000
G01 X58.416667 Y-8 Z0.130719 F1000
G01 X58 Y-8 Z0.261438 F1000
G01 X57.583333 Y-8 Z0.287582 F1000
G01 X56.75 Y-8 Z0.287582 F1000
G01 X56.333333 Y-8 Z0.169935 F1000
G01 X55.916667 Y-8 Z0.026144 F1000
G01 X52.583333 Y-8 Z0.026144 F1000
G01 X52.166667 Y-8 Z0.169935 F1000
G01 X51.75 Y-8 Z0.339869 F1000
G01 X50.916667 Y-8 Z0.339869 F1000
G01 X50.5 Y-8 Z0.313725 F1000
G01 X50.083333 Y-8 Z0.183007 F1000
G01 X49.666667 Y-8 Z0.130719 F1000
G01 X45.916667 Y-8 Z0.130719 F1000
G01 X45.5 Y-8 Z0.183007 F1000
G01 X45.083333 Y-8 Z0.339869 F1000
G01 X43.833333 Y-8 Z0.339869 F1000
G01 X43.416667 Y-8 Z0.300654 F1000
G01 X42.583333 Y-8 Z0.300654 F1000
G01 X42.166667 Y-8 Z0.27451 F1000
G01 X41.75 Y-8 Z0.27451 F1000
G01 X41.333333 Y-8 Z0.183007 F1000
G01 X40.916667 Y-8 Z0.130719 F1000
G01 X37.166667 Y-8 Z0.130719 F1000
G01 X36.75 Y-8 Z0.20915 F1000
G01 X35.5 Y-8 Z0.20915 F1000
G01 X35.083333 Y-8 Z0.183007 F1000
G01 X34.666667 Y-8 Z0.130719 F1000
G01 X34.25 Y-8 Z0.117647 F1000
G01 X33.833333 Y-8 Z0.117647 F1000
G01 X33.416667 Y-8 Z0 F1000
G01 X0.5 Y-8 Z0 F1000
G01 X0.5 Y-8.416667 Z0 F1000
G01 X0.5 Y-8.833333 Z0 F1000
G01 X33 Y-8.833333 Z0 F1000
G01 X33.416667 Y-8.833333 Z0.065359 F1000
G01 X33.833333 Y-8.833333 Z0.117647 F1000
G01 X34.25 Y-8.833333 Z0.20915 F1000
G01 X35.083333 Y-8.833333 Z0.20915 F1000
G01 X35.5 Y-8.833333 Z0.130719 F1000
G01 X40.083333 Y-8.833333 Z0.130719 F1000
G01 X40.5 Y-8.833333 Z0.183007 F1000
G01 X40.916667 Y-8.833333 Z0.287582 F1000
G01 X41.75 Y-8.833333 Z0.287582 F1000
G01 X42.166667 Y-8.833333 Z0.27451 F1000
G01 X42.583333 Y-8.833333 Z0.27451 F1000
G01 X43 Y-8.833333 Z0.169935 F1000
G01 X43.416667 Y-8.833333 Z0.169935 F1000
G01 X43.833333 Y-8.833333 Z0.222222 F1000
G01 X44.25 Y-8.833333 Z0.339869 F1000
G01 X45.916667 Y-8.833333 Z0.339869 F1000
G01 X46.333333 Y-8.833333 Z0.183007 F1000
G01 X46.75 Y-8.833333 Z0.130719 F1000
G01 X50.5 Y-8.833333 Z0.130719 F1000
G01 X50.916667 Y-8.833333 Z0.339869 F1000
G01 X52.166667 Y-8.833333 Z0.339869 F1000
G01 X52.583333 Y-8.833333 Z0.169935 F1000
G01 X53 Y-8.833333 Z0.026144 F1000
G01 X55.5 Y-8.833333 Z0.026144 F1000
G01 X55.916667 Y-8.833333 Z0.222222 F1000
G01 X56.333333 Y-8.833333 Z0.287582 F1000
G01 X57.166667 Y-8.833333 Z0.287582 F1000
G01 X57.583333 Y-8.833333 Z0.248366 F1000
G01 X58 Y-8.833333 Z0.130719 F1000
G01 X63.833333 Y-8.833333 Z0.130719 F1000
G01 X64.25 Y-8.833333 Z0.20915 F1000
G01 X64.666667 Y-8.833333 Z0.287582 F1000
G01 X65.083333 Y-8.833333 Z0.287582 F1000
G01 X65.5 Y-8.833333 Z0.300654 F1000
G01 X65.916667 Y-8.833333 Z0.300654 F1000
G01 X66.333333 Y-8.833333 Z0.313725 F1000
G01 X67.166667 Y-8.833333 Z0.313725 F1000
G01 X67.583333 Y-8.833333 Z0.261438 F1000
G01 X68 Y-8.833333 Z0.130719 F1000
G01 X76.333333 Y-8.833333 Z0.130719 F1000
G01 X76.75 Y-8.833333 Z0.091503 F1000
G01 X77.166667 Y-8.833333 Z0.065359 F1000
G01 X77.583333 Y-8.833333 Z0 F1000
G01 X99.666667 Y-8.833333 Z0 F1000
G01 X99.666667 Y-9.25 Z0 F1000
G01 X99.666667 Y-9.666667 Z0 F1000
G01 X78.416667 Y-9.666667 Z0 F1000
G01 X78 Y-9.666667 Z0.065359 F1000
G01 X77.583333 Y-9.666667 Z0.091503 F1000
G01 X77.166667 Y-9.666667 Z0.130719 F1000
G01 X68.833333 Y-9.666667 Z0.130719 F1000
G01 X68.416667 Y-9.666667 Z0.27451 F1000
G01 X67.583333 Y-9.666667 Z0.27451 F1000
G01 X67.166667 Y-9.666667 Z0.313725 F1000
G01 X66.333333 Y-9.666667 Z0.313725 F1000
G01 X65.916667 Y-9.666667 Z0.156863 F1000
G01 X65.5 Y-9.666667 Z0.287582 F1000
G01 X65.083333 Y-9.666667 Z0.287582 F1000
G01 X64.666667 Y-9.666667 Z0.300654 F1000
G01 X64.25 Y-9.666667 Z0.339869 F1000
G01 X63.416667 Y-9.666667 Z0.339869 F1000
G01 X63 Y-9.666667 Z0.248366 F1000
G01 X62.583333 Y-9.666667 Z0.130719 F1000
G01 X57.583333 Y-9.666667 Z0.130719 F1000
G01 X57.166667 Y-9.666667 Z0.287582 F1000
G01 X56.333333 Y-9.666667 Z0.287582 F1000
G01 X55.916667 Y-9.666667 Z0.222222 F1000
G01 X55.5 Y-9.666667 Z0.026144 F1000
G01 X53 Y-9.666667 Z0.026144 F1000
G01 X52.583333 Y-9.666667 Z0.169935 F1000
G01 X52.166667 Y-9.666667 Z0.339869 F1000
G01 X51.333333 Y-9.666667 Z0.339869 F1000
G01 X50.916667 Y-9.666667 Z0.130719 F1000
G01 X47.583333 Y-9.666667 Z0.130719 F1000
G01 X47.166667 Y-9.666667 Z0.183007 F1000
G01 X46.75 Y-9.666667 Z0.287582 F1000
G01 X46.333333 Y-9.666667 Z0.339869 F1000
G01 X45.083333 Y-9.666667 Z0.339869 F1000
G01 X44.666667 Y-9.666667 Z0.156863 F1000
G01 X44.25 Y-9.666667 Z0.026144 F1000
G01 X43 Y-9.666667 Z0.026144 F1000
G01 X42.583333 Y-9.666667 Z0.169935 F1000
G01 X42.166667 Y-9.666667 Z0.169935 F1000
G01 X41.75 Y-9.666667 Z0.287582 F1000
G01 X41.333333 Y-9.666667 Z0.339869 F1000
G01 X40.083333 Y-9.666667 Z0.339869 F1000
G01 X39.666667 Y-9.666667 Z0.20915 F1000
G01 X39.25 Y-9.666667 Z0.130719 F1000
G01 X35.5 Y-9.666667 Z0.130719 F1000
G01 X35.083333 Y-9.666667 Z0.248366 F1000
G01 X34.666667 Y-9.666667 Z0.27451 F1000
G01 X33.833333 Y-9.666667 Z0.27451 F1000
G01 X33.416667 Y-9.666667 Z0.183007 F1000
G01 X33 Y-9.666667 Z0.117647 F1000
G01 X32.583333 Y-9.666667 Z0 F1000
G01 X0.5 Y-9.666667 Z0 F1000
G01 X0.5 Y-10.083333 Z0 F1000
G01 X0.5 Y-10.5 Z0 F1000
G01 X32.166667 Y-10.5 Z0 F1000
G01 X32.583333 Y-10.5 Z0.117647 F1000
G01 X33 Y-10.5 Z0.130719 F1000
G01 X33.416667 Y-10.5 Z0.339869 F1000
G01 X34.666667 Y-10.5 Z0.339869 F1000
G01 X35.083333 Y-10.5 Z0.20915 F1000
G01 X35.5 Y-10.5 Z0.130719 F1000
G01 X38.416667 Y-10.5 Z0.130719 F1000
G01 X38.833333 Y-10.5 Z0.248366 F1000
G01 X39.25 Y-10.5 Z0.339869 F1000
G01 X40.916667 Y-10.5 Z0.339869 F1000
G01 X41.333333 Y-10.5 Z0.222222 F1000
G01 X41.75 Y-10.5 Z0.026144 F1000
G01 X42.583333 Y-10.5 Z0.026144 F1000
G01 X43 Y-10.5 Z0.169935 F1000
G01 X44.25 Y-10.5 Z0.169935 F1000
G01 X44.666667 Y-10.5 Z0.026144 F1000
G01 X45.083333 Y-10.5 Z0.026144 F1000
G01 X45.5 Y-10.5 Z0.169935 F1000
G01 X45.916667 Y-10.5 Z0.287582 F1000
G01 X46.333333 Y-10.5 Z0.300654 F1000
G01 X47.166667 Y-10.5 Z0.300654 F1000
G01 X47.583333 Y-10.5 Z0.248366 F1000
G01 X48 Y-10.5 Z0.130719 F1000
G01 X50.5 Y-10.5 Z0.130719 F1000
G01 X50.916667 Y-10.5 Z0.183007 F1000
G01 X51.333333 Y-10.5 Z0.313725 F1000
G01 X52.166667 Y-10.5 Z0.313725 F1000
G01 X52.583333 Y-10.5 Z0.169935 F1000
G01 X53 Y-10.5 Z0.026144 F1000
G01 X55.5 Y-10.5 Z0.026144 F1000
G01 X55.916667 Y-10.5 Z0.169935 F1000
G01 X56.333333 Y-10.5 Z0.313725 F1000
G01 X57.166667 Y-10.5 Z0.313725 F1000
G01 X57.583333 Y-10.5 Z0.300654 F1000
G01 X58 Y-10.5 Z0.130719 F1000
G01 X61.333333 Y-10.5 Z0.130719 F1000
G01 X61.75 Y-10.5 Z0.248366 F1000
G01 X62.166667 Y-10.5 Z0.339869 F1000
G01 X64.25 Y-10.5 Z0.339869 F1000
G01 X64.666667 Y-10.5 Z0.222222 F1000
G01 X65.083333 Y-10.5 Z0.169935 F1000
G01 X65.5 Y-10.5 Z0.026144 F1000
G01 X66.333333 Y-10.5 Z0.026144 F1000
G01 X66.75 Y-10.5 Z0.169935 F1000
G01 X67.166667 Y-10.5 Z0.222222 F1000
G01 X67.583333 Y-10.5 Z0.27451 F1000
G01 X69.25 Y-10.5 Z0.27451 F1000
G01 X69.666667 Y-10.5 Z0.183007 F1000
G01 X70.083333 Y-10.5 Z0.130719 F1000
G01 X78 Y-10.5 Z0.130719 F1000
G01 X78.416667 Y-10.5 Z0.117647 F1000
G01 X78.833333 Y-10.5 Z0.117647 F1000
G01 X79.25 Y-10.5 Z0 F1000
G01 X99.666667 Y-10.5 Z0 F1000
G01 X99.666667 Y-10.916667 Z0 F1000
G01 X99.666667 Y-11.333333 Z0 F1000
G01 X79.666667 Y-11.333333 Z0 F1000
G01 X79.25 Y-11.333333 Z0.013072 F1000
G01 X78.833333 Y-11.333333 Z0.130719 F1000
G01 X76.75 Y-11.333333 Z0.130719 F1000
G01 X76.333333 Y-11.333333 Z0.248366 F1000
G01 X75.916667 Y-11.333333 Z0.287582 F1000
G01 X75.083333 Y-11.333333 Z0.287582 F1000
G01 X74.666667 Y-11.333333 Z0.261438 F1000
G01 X74.25 Y-11.333333 Z0.130719 F1000
G01 X70.5 Y-11.333333 Z0.130719 F1000
G01 X70.083333 Y-11.333333 Z0.248366 F1000
G01 X69.666667 Y-11.333333 Z0.27451 F1000
G01 X68.833333 Y-11.333333 Z0.27451 F1000
G01 X68.416667 Y-11.333333 Z0.313725 F1000
G01 X67.583333 Y-11.333333 Z0.313725 F1000
G01 X67.166667 Y-11.333333 Z0.287582 F1000
G01 X66.75 Y-11.333333 Z0.27451 F1000
G01 X65.916667 Y-11.333333 Z0.27451 F1000
G01 X65.5 Y-11.333333 Z0.287582 F1000
G01 X64.666667 Y-11.333333 Z0.287582 F1000
G01 X64.25 Y-11.333333 Z0.169935 F1000
G01 X63.833333 Y-11.333333 Z0.169935 F1000
G01 X63.416667 Y-11.333333 Z0.222222 F1000
G01 X63 Y-11.333333 Z0.339869 F1000
G01 X60.916667 Y-11.333333 Z0.339869 F1000
G01 X60.5 Y-11.333333 Z0.261438 F1000
G01 X60.083333 Y-11.333333 Z0.183007 F1000
G01 X59.666667 Y-11.333333 Z0.130719 F1000
G01 X59.25 Y-11.333333 Z0.130719 F1000
G01 X58.833333 Y-11.333333 Z0.248366 F1000
G01 X58.416667 Y-11.333333 Z0.287582 F1000
G01 X58 Y-11.333333 Z0.287582 F1000
G01 X57.583333 Y-11.333333 Z0.300654 F1000
G01 X56.75 Y-11.333333 Z0.300654 F1000
G01 X56.333333 Y-11.333333 Z0.156863 F1000
G01 X55.916667 Y-11.333333 Z0.026144 F1000
G01 X53 Y-11.333333 Z0.026144 F1000
G01 X52.583333 Y-11.333333 Z0.169935 F1000
G01 X52.166667 Y-11.333333 Z0.313725 F1000
G01 X50.916667 Y-11.333333 Z0.313725 F1000
G01 X50.5 Y-11.333333 Z0.248366 F1000
G01 X50.083333 Y-11.333333 Z0.130719 F1000
G01 X48.833333 Y-11.333333 Z0.130719 F1000
G01 X48.416667 Y-11.333333 Z0.183007 F1000
G01 X48 Y-11.333333 Z0.287582 F1000
G01 X47.583333 Y-11.333333 Z0.339869 F1000
G01 X46.75 Y-11.333333 Z0.339869 F1000
G01 X46.333333 Y-11.333333 Z0.313725 F1000
G01 X45.916667 Y-11.333333 Z0.339869 F1000
G01 X45.083333 Y-11.333333 Z0.339869 F1000
G01 X44.666667 Y-11.333333 Z0.27451 F1000
G01 X44.25 Y-11.333333 Z0.27451 F1000
G01 X43.833333 Y-11.333333 Z0.261438 F1000
G01 X43.416667 Y-11.333333 Z0.300654 F1000
G01 X42.583333 Y-11.333333 Z0.300654 F1000
G01 X42.166667 Y-11.333333 Z0.313725 F1000
G01 X41.333333 Y-11.333333 Z0.313725 F1000
G01 X40.916667 Y-11.333333 Z0.169935 F1000
G01 X40.5 Y-11.333333 Z0.169935 F1000
G01 X40.083333 Y-11.333333 Z0.339869 F1000
G01 X39.25 Y-11.333333 Z0.339869 F1000
G01 X38.833333 Y-11.333333 Z0.300654 F1000
G01 X38.416667 Y-11.333333 Z0.300654 F1000
G01 X38 Y-11.333333 Z0.27451 F1000
G01 X37.583333 Y-11.333333 Z0.183007 F1000
G01 X37.166667 Y-11.333333 Z0.130719 F1000
G01 X35.916667 Y-11.333333 Z0.130719 F1000
G01 X35.5 Y-11.333333 Z0.183007 F1000
G01 X35.083333 Y-11.333333 Z0.339869 F1000
G01 X33.416667 Y-11.333333 Z0.339869 F1000
G01 X33 Y-11.333333 Z0.287582 F1000
G01 X32.583333 Y-11.333333 Z0.117647 F1000
G01 X32.166667 Y-11.333333 Z0.117647 F1000
G01 X31.75 Y-11.333333 Z0 F1000
G01 X0.5 Y-11.333333 Z0 F1000
G01 X0.5 Y-11.75 Z0 F1000
G01 X0.5 Y-12.166667 Z0 F1000
G01 X31.333333 Y-12.166667 Z0 F1000
G01 X31.75 Y-12.166667 Z0.117647 F1000
G01 X32.166667 Y-12.166667 Z0.117647 F1000
G01 X32.583333 Y-12.166667 Z0.261438 F1000
G01 X33 Y-12.166667 Z0.313725 F1000
G01 X33.833333 Y-12.166667 Z0.313725 F1000
G01 X34.25 Y-12.166667 Z0.339869 F1000
G01 X35.916667 Y-12.166667 Z0.339869 F1000
G01 X36.333333 Y-12.166667 Z0.287582 F1000
G01 X36.75 Y-12.166667 Z0.287582 F1000
G01 X37.166667 Y-12.166667 Z0.313725 F1000
G01 X38 Y-12.166667 Z0.313725 F1000
G01 X38.416667 Y-12.166667 Z0.287582 F1000
G01 X38.833333 Y-12.166667 Z0.313725 F1000
G01 X39.666667 Y-12.166667 Z0.313725 F1000
G01 X40.083333 Y-12.166667 Z0.300654 F1000
G01 X40.5 Y-12.166667 Z0.287582 F1000
G01 X40.916667 Y-12.166667 Z0.287582 F1000
G01 X41.333333 Y-12.166667 Z0.313725 F1000
G01 X41.75 Y-12.166667 Z0.313725 F1000
G01 X42.166667 Y-12.166667 Z0.339869 F1000
G01 X43 Y-12.166667 Z0.339869 F1000
G01 X43.416667 Y-12.166667 Z0.313725 F1000
G01 X44.25 Y-12.166667 Z0.313725 F1000
G01 X44.666667 Y-12.166667 Z0.339869 F1000
G01 X45.916667 Y-12.166667 Z0.339869 F1000
G01 X46.333333 Y-12.166667 Z0.313725 F1000
G01 X47.166667 Y-12.166667 Z0.313725 F1000
G01 X47.583333 Y-12.166667 Z0.339869 F1000
G01 X50.083333 Y-12.166667 Z0.339869 F1000
G01 X50.5 Y-12.166667 Z0.27451 F1000
G01 X50.916667 Y-12.166667 Z0.313725 F1000
G01 X51.75 Y-12.166667 Z0.313725 F1000
G01 X52.166667 Y-12.166667 Z0.169935 F1000
G01 X52.583333 Y-12.166667 Z0.026144 F1000
G01 X56.75 Y-12.166667 Z0.026144 F1000
G01 X57.166667 Y-12.166667 Z0.169935 F1000
G01 X57.583333 Y-12.166667 Z0.287582 F1000
G01 X59.25 Y-12.166667 Z0.287582 F1000
G01 X59.666667 Y-12.166667 Z0.313725 F1000
G01 X60.5 Y-12.166667 Z0.313725 F1000
G01 X60.916667 Y-12.166667 Z0.339869 F1000
G01 X62.166667 Y-12.166667 Z0.339869 F1000
G01 X62.583333 Y-12.166667 Z0.313725 F1000
G01 X63 Y-12.166667 Z0.313725 F1000
G01 X63.416667 Y-12.166667 Z0.300654 F1000
G01 X63.833333 Y-12.166667 Z0.300654 F1000
G01 X64.25 Y-12.166667 Z0.261438 F1000
G01 X64.666667 Y-12.166667 Z0.300654 F1000
G01 X65.5 Y-12.166667 Z0.300654 F1000
G01 X65.916667 Y-12.166667 Z0.287582 F1000
G01 X66.75 Y-12.166667 Z0.287582 F1000
G01 X67.166667 Y-12.166667 Z0.300654 F1000
G01 X67.583333 Y-12.166667 Z0.313725 F1000
G01 X70.083333 Y-12.166667 Z0.313725 F1000
G01 X70.5 Y-12.166667 Z0.27451 F1000
G01 X70.916667 Y-12.166667 Z0.183007 F1000
G01 X71.333333 Y-12.166667 Z0.130719 F1000
G01 X73.833333 Y-12.166667 Z0.130719 F1000
G01 X74.25 Y-12.166667 Z0.20915 F1000
G01 X74.666667 Y-12.166667 Z0.313725 F1000
G01 X75.5 Y-12.166667 Z0.313725 F1000
G01 X75.916667 Y-12.166667 Z0.300654 F1000
G01 X76.75 Y-12.166667 Z0.300654 F1000
G01 X77.166667 Y-12.166667 Z0.287582 F1000
G01 X77.583333 Y-12.166667 Z0.183007 F1000
G01 X78 Y-12.166667 Z0.130719 F1000
G01 X79.25 Y-12.166667 Z0.130719 F1000
G01 X79.666667 Y-12.166667 Z0.117647 F1000
G01 X80.083333 Y-12.166667 Z0.117647 F1000
G01 X80.5 Y-12.166667 Z0 F1000
G01 X99.666667 Y-12.166667 Z0 F1000
G01 X99.666667 Y-12.583333 Z0 F1000
G01 X99.666667 Y-13 Z0 F1000
G01 X80.916667 Y-13 Z0 F1000
G01 X80.5 Y-13 Z0.052288 F1000
G01 X80.083333 Y-13 Z0.117647 F1000
G01 X79.666667 Y-13 Z0.130719 F1000
G01 X78.416667 Y-13 Z0.130719 F1000
G01 X78 Y-13 Z0.20915 F1000
G01 X77.583333 Y-13 Z0.27451 F1000
G01 X77.166667 Y-13 Z0.287582 F1000
G01 X76.333333 Y-13 Z0.287582 F1000
G01 X75.916667 Y-13 Z0.222222 F1000
G01 X75.5 Y-13 Z0.313725 F1000
G01 X75.083333 Y-13 Z0.339869 F1000
G01 X74.25 Y-13 Z0.339869 F1000
G01 X73.833333 Y-13 Z0.27451 F1000
G01 X73.416667 Y-13 Z0.27451 F1000
G01 X73 Y-13 Z0.248366 F1000
G01 X72.583333 Y-13 Z0.183007 F1000
G01 X72.166667 Y-13 Z0.20915 F1000
G01 X71.333333 Y-13 Z0.20915 F1000
G01 X70.916667 Y-13 Z0.248366 F1000
G01 X70.5 Y-13 Z0.27451 F1000
G01 X70.083333 Y-13 Z0.300654 F1000
G01 X69.25 Y-13 Z0.300654 F1000
G01 X68.833333 Y-13 Z0.313725 F1000
G01 X68 Y-13 Z0.313725 F1000
G01 X67.583333 Y-13 Z0.300654 F1000
G01 X67.166667 Y-13 Z0.300654 F1000
G01 X66.75 Y-13 Z0.287582 F1000
G01 X65.916667 Y-13 Z0.287582 F1000
G01 X65.5 Y-13 Z0.300654 F1000
G01 X64.666667 Y-13 Z0.300654 F1000
G01 X64.25 Y-13 Z0.313725 F1000
G01 X62.583333 Y-13 Z0.313725 F1000
G01 X62.166667 Y-13 Z0.339869 F1000
G01 X61.333333 Y-13 Z0.339869 F1000
G01 X60.916667 Y-13 Z0.313725 F1000
G01 X60.5 Y-13 Z0.313725 F1000
G01 X60.083333 Y-13 Z0.287582 F1000
G01 X59.666667 Y-13 Z0.169935 F1000
G01 X58.416667 Y-13 Z0.169935 F1000
G01 X58 Y-13 Z0.026144 F1000
G01 X51.333333 Y-13 Z0.026144 F1000
G01 X50.916667 Y-13 Z0.156863 F1000
G01 X50.5 Y-13 Z0.169935 F1000
G01 X50.083333 Y-13 Z0.339869 F1000
G01 X48 Y-13 Z0.339869 F1000
G01 X47.583333 Y-13 Z0.300654 F1000
G01 X46.333333 Y-13 Z0.300654 F1000
G01 X45.916667 Y-13 Z0.287582 F1000
G01 X45.5 Y-13 Z0.339869 F1000
G01 X44.666667 Y-13 Z0.339869 F1000
G01 X44.25 Y-13 Z0.313725 F1000
G01 X43.416667 Y-13 Z0.313725 F1000
G01 X43 Y-13 Z0.339869 F1000
G01 X42.166667 Y-13 Z0.339869 F1000
G01 X41.75 Y-13 Z0.300654 F1000
G01 X41.333333 Y-13 Z0.313725 F1000
G01 X40.5 Y-13 Z0.313725 F1000
G01 X40.083333 Y-13 Z0.300654 F1000
G01 X39.666667 Y-13 Z0.313725 F1000
G01 X37.166667 Y-13 Z0.313725 F1000
G01 X36.75 Y-13 Z0.287582 F1000
G01 X36.333333 Y-13 Z0.287582 F1000
G01 X35.916667 Y-13 Z0.339869 F1000
G01 X35.083333 Y-13 Z0.339869 F1000
G01 X34.666667 Y-13 Z0.169935 F1000
G01 X34.25 Y-13 Z0.026144 F1000
G01 X33.833333 Y-13 Z0.169935 F1000
G01 X33.416667 Y-13 Z0.313725 F1000
G01 X32.583333 Y-13 Z0.313725 F1000
G01 X32.166667 Y-13 Z0.20915 F1000
G01 X31.75 Y-13 Z0.117647 F1000
G01 X31.333333 Y-13 Z0 F1000
G01 X17.583333 Y-13 Z0 F1000
G01 X17.166667 Y-13 Z0.065359 F1000
G01 X15.5 Y-13 Z0.065359 F1000
G01 X15.083333 Y-13 Z0 F1000
G01 X0.5 Y-13 Z0 F1000
G01 X0.5 Y-13.416667 Z0 F1000
G01 X0.5 Y-13.833333 Z0 F1000
G01 X14.666667 Y-13.833333 Z0 F1000
G01 X15.083333 Y-13.833333 Z0.078431 F1000
G01 X15.5 Y-13.833333 Z0.248366 F1000
G01 X15.916667 Y-13.833333 Z0.248366 F1000
G01 X16.333333 Y-13.833333 Z0.261438 F1000
G01 X17.166667 Y-13.833333 Z0.261438 F1000
G01 X17.583333 Y-13.833333 Z0.091503 F1000
G01 X18 Y-13.833333 Z0.065359 F1000
G01 X18.416667 Y-13.833333 Z0 F1000
G01 X30.916667 Y-13.833333 Z0 F1000
G01 X31.333333 Y-13.833333 Z0.117647 F1000
G01 X31.75 Y-13.833333 Z0.117647 F1000
G01 X32.166667 Y-13.833333 Z0.300654 F1000
G01 X32.583333 Y-13.833333 Z0.313725 F1000
G01 X33.416667 Y-13.833333 Z0.313725 F1000
G01 X33.833333 Y-13.833333 Z0.169935 F1000
G01 X34.25 Y-13.833333 Z0.026144 F1000
G01 X35.916667 Y-13.833333 Z0.026144 F1000
G01 X36.333333 Y-13.833333 Z0.169935 F1000
G01 X36.75 Y-13.833333 Z0.27451 F1000
G01 X37.166667 Y-13.833333 Z0.287582 F1000
G01 X37.583333 Y-13.833333 Z0.313725 F1000
G01 X39.666667 Y-13.833333 Z0.313725 F1000
G01 X40.083333 Y-13.833333 Z0.27451 F1000
G01 X40.5 Y-13.833333 Z0.222222 F1000
G01 X40.916667 Y-13.833333 Z0.222222 F1000
G01 X41.333333 Y-13.833333 Z0.156863 F1000
G01 X41.75 Y-13.833333 Z0.026144 F1000
G01 X45.5 Y-13.833333 Z0.026144 F1000
G01 X45.916667 Y-13.833333 Z0.169935 F1000
G01 X46.333333 Y-13.833333 Z0.222222 F1000
G01 X46.75 Y-13.833333 Z0.222222 F1000
G01 X47.166667 Y-13.833333 Z0.261438 F1000
G01 X47.583333 Y-13.833333 Z0.27451 F1000
G01 X48 Y-13.833333 Z0.287582 F1000
G01 X48.416667 Y-13.833333 Z0.339869 F1000
G01 X50.083333 Y-13.833333 Z0.339869 F1000
G01 X50.5 Y-13.833333 Z0.156863 F1000
G01 X50.916667 Y-13.833333 Z0.026144 F1000
G01 X58 Y-13.833333 Z0.026144 F1000
G01 X58.416667 Y-13.833333 Z0.169935 F1000
G01 X58.833333 Y-13.833333 Z0.169935 F1000
G01 X59.25 Y-13.833333 Z0.261438 F1000
G01 X59.666667 Y-13.833333 Z0.300654 F1000
G01 X61.75 Y-13.833333 Z0.300654 F1000
G01 X62.166667 Y-13.833333 Z0.313725 F1000
G01 X63 Y-13.833333 Z0.313725 F1000
G01 X63.416667 Y-13.833333 Z0.222222 F1000
G01 X63.833333 Y-13.833333 Z0.222222 F1000
G01 X64.25 Y-13.833333 Z0.169935 F1000
G01 X64.666667 Y-13.833333 Z0.026144 F1000
G01 X67.583333 Y-13.833333 Z0.026144 F1000
G01 X68 Y-13.833333 Z0.169935 F1000
G01 X68.416667 Y-13.833333 Z0.222222 F1000
G01 X68.833333 Y-13.833333 Z0.222222 F1000
G01 X69.25 Y-13.833333 Z0.27451 F1000
G01 X69.666667 Y-13.833333 Z0.339869 F1000
G01 X70.5 Y-13.833333 Z0.339869 F1000
G01 X70.916667 Y-13.833333 Z0.27451 F1000
G01 X71.333333 Y-13.833333 Z0.300654 F1000
G01 X72.166667 Y-13.833333 Z0.300654 F1000
G01 X72.583333 Y-13.833333 Z0.287582 F1000
G01 X73.416667 Y-13.833333 Z0.287582 F1000
G01 X73.833333 Y-13.833333 Z0.27451 F1000
G01 X74.25 Y-13.833333 Z0.27451 F1000
G01 X74.666667 Y-13.833333 Z0.169935 F1000
G01 X75.083333 Y-13.833333 Z0.156863 F1000
G01 X75.5 Y-13.833333 Z0.026144 F1000
G01 X75.916667 Y-13.833333 Z0.026144 F1000
G01 X76.333333 Y-13.833333 Z0.169935 F1000
G01 X76.75 Y-13.833333 Z0.222222 F1000
G01 X77.166667 Y-13.833333 Z0.27451 F1000
G01 X78 Y-13.833333 Z0.27451 F1000
G01 X78.416667 Y-13.833333 Z0.130719 F1000
G01 X80.5 Y-13.833333 Z0.130719 F1000
G01 X80.916667 Y-13.833333 Z0.117647 F1000
G01 X81.333333 Y-13.833333 Z0 F1000
G01 X99.666667 Y-13.833333 Z0 F1000
G01 X99.666667 Y-14.25 Z0 F1000
G01 X99.666667 Y-14.666667 Z0 F1000
G01 X81.75 Y-14.666667 Z0 F1000
G01 X81.333333 Y-14.666667 Z0.117647 F1000
G01 X80.916667 Y-14.666667 Z0.130719 F1000
G01 X78.833333 Y-14.666667 Z0.130719 F1000
G01 X78.416667 Y-14.666667 Z0.20915 F1000
G01 X78 Y-14.666667 Z0.339869 F1000
G01 X77.166667 Y-14.666667 Z0.339869 F1000
G01 X76.75 Y-14.666667 Z0.222222 F1000
G01 X76.333333 Y-14.666667 Z0.026144 F1000
G01 X74.25 Y-14.666667 Z0.026144 F1000
G01 X73.833333 Y-14.666667 Z0.169935 F1000
G01 X73.416667 Y-14.666667 Z0.287582 F1000
G01 X73 Y-14.666667 Z0.300654 F1000
G01 X72.166667 Y-14.666667 Z0.300654 F1000
G01 X71.75 Y-14.666667 Z0.287582 F1000
G01 X70.916667 Y-14.666667 Z0.287582 F1000
G01 X70.5 Y-14.666667 Z0.27451 F1000
G01 X70.083333 Y-14.666667 Z0.169935 F1000
G01 X69.666667 Y-14.666667 Z0.156863 F1000
G01 X69.25 Y-14.666667 Z0.026144 F1000
G01 X62.583333 Y-14.666667 Z0.026144 F1000
G01 X62.166667 Y-14.666667 Z0.156863 F1000
G01 X61.75 Y-14.666667 Z0.156863 F1000
G01 X61.333333 Y-14.666667 Z0.287582 F1000
G01 X60.916667 Y-14.666667 Z0.313725 F1000
G01 X59.666667 Y-14.666667 Z0.313725 F1000
G01 X59.25 Y-14.666667 Z0.300654 F1000
G01 X58.416667 Y-14.666667 Z0.300654 F1000
G01 X58 Y-14.666667 Z0.169935 F1000
G01 X57.583333 Y-14.666667 Z0.169935 F1000
G01 X57.166667 Y-14.666667 Z0.026144 F1000
G01 X51.75 Y-14.666667 Z0.026144 F1000
G01 X51.333333 Y-14.666667 Z0.169935 F1000
G01 X50.916667 Y-14.666667 Z0.169935 F1000
G01 X50.5 Y-14.666667 Z0.313725 F1000
G01 X50.083333 Y-14.666667 Z0.339869 F1000
G01 X49.25 Y-14.666667 Z0.339869 F1000
G01 X48.833333 Y-14.666667 Z0.287582 F1000
G01 X48 Y-14.666667 Z0.287582 F1000
G01 X47.583333 Y-14.666667 Z0.222222 F1000
G01 X47.166667 Y-14.666667 Z0.169935 F1000
G01 X46.75 Y-14.666667 Z0.026144 F1000
G01 X40.083333 Y-14.666667 Z0.026144 F1000
G01 X39.666667 Y-14.666667 Z0.156863 F1000
G01 X39.25 Y-14.666667 Z0.169935 F1000
G01 X38.833333 Y-14.666667 Z0.27451 F1000
G01 X38.416667 Y-14.666667 Z0.287582 F1000
G01 X35.916667 Y-14.666667 Z0.287582 F1000
G01 X35.5 Y-14.666667 Z0.156863 F1000
G01 X35.083333 Y-14.666667 Z0.026144 F1000
G01 X33.833333 Y-14.666667 Z0.026144 F1000
G01 X33.416667 Y-14.666667 Z0.169935 F1000
G01 X33 Y-14.666667 Z0.300654 F1000
G01 X32.166667 Y-14.666667 Z0.300654 F1000
G01 X31.75 Y-14.666667 Z0.117647 F1000
G01 X31.333333 Y-14.666667 Z0.117647 F1000
G01 X30.916667 Y-14.666667 Z0 F1000
G01 X23.416667 Y-14.666667 Z0 F1000
G01 X23 Y-14.666667 Z0.117647 F1000
G01 X22.166667 Y-14.666667 Z0.117647 F1000
G01 X21.75 Y-14.666667 Z0.065359 F1000
G01 X21.333333 Y-14.666667 Z0.052288 F1000
G01 X20.916667 Y-14.666667 Z0 F1000
G01 X18.833333 Y-14.666667 Z0 F1000
G01 X18.416667 Y-14.666667 Z0.078431 F1000
G01 X18 Y-14.666667 Z0.20915 F1000
G01 X17.583333 Y-14.666667 Z0.339869 F1000
G01 X16.75 Y-14.666667 Z0.339869 F1000
G01 X16.333333 Y-14.666667 Z0.261438 F1000
G01 X15.5 Y-14.666667 Z0.261438 F1000
G01 X15.083333 Y-14.666667 Z0.104575 F1000
G01 X14.666667 Y-14.666667 Z0 F1000
G01 X0.5 Y-14.666667 Z0 F1000
G01 X0.5 Y-15.083333 Z0 F1000
G01 X0.5 Y-15.5 Z0 F1000
G01 X14.666667 Y-15.5 Z0 F1000
G01 X15.083333 Y-15.5 Z0.078431 F1000
G01 X15.5 Y-15.5 Z0.20915 F1000
G01 X15.916667 Y-15.5 Z0.300654 F1000
G01 X16.333333 Y-15.5 Z0.300654 F1000
G01 X16.75 Y-15.5 Z0.339869 F1000
G01 X17.583333 Y-15.5 Z0.339869 F1000
G01 X18 Y-15.5 Z0.287582 F1000
G01 X18.416667 Y-15.5 Z0.248366 F1000
G01 X18.833333 Y-15.5 Z0.117647 F1000
G01 X19.25 Y-15.5 Z0.117647 F1000
G01 X19.666667 Y-15.5 Z0 F1000
G01 X20.5 Y-15.5 Z0 F1000
G01 X20.916667 Y-15.5 Z0.117647 F1000
G01 X21.333333 Y-15.5 Z0.20915 F1000
G01 X21.75 Y-15.5 Z0.300654 F1000
G01 X22.583333 Y-15.5 Z0.300654 F1000
G01 X23 Y-15.5 Z0.117647 F1000
G01 X23.416667 Y-15.5 Z0.117647 F1000
G01 X23.833333 Y-15.5 Z0 F1000
G01 X30.916667 Y-15.5 Z0 F1000
G01 X31.333333 Y-15.5 Z0.065359 F1000
G01 X31.75 Y-15.5 Z0.183007 F1000
G01 X32.166667 Y-15.5 Z0.339869 F1000
G01 X33 Y-15.5 Z0.339869 F1000
G01 X33.416667 Y-15.5 Z0.156863 F1000
G01 X33.833333 Y-15.5 Z0.026144 F1000
G01 X34.25 Y-15.5 Z0.026144 F1000
G01 X34.666667 Y-15.5 Z0.169935 F1000
G01 X35.083333 Y-15.5 Z0.169935 F1000
G01 X35.5 Y-15.5 Z0.313725 F1000
G01 X36.333333 Y-15.5 Z0.313725 F1000
G01 X36.75 Y-15.5 Z0.300654 F1000
G01 X37.166667 Y-15.5 Z0.300654 F1000
G01 X37.583333 Y-15.5 Z0.287582 F1000
G01 X38 Y-15.5 Z0.287582 F1000
G01 X38.416667 Y-15.5 Z0.222222 F1000
G01 X38.833333 Y-15.5 Z0.026144 F1000
G01 X48 Y-15.5 Z0.026144 F1000
G01 X48.416667 Y-15.5 Z0.222222 F1000
G01 X48.833333 Y-15.5 Z0.27451 F1000
G01 X49.25 Y-15.5 Z0.339869 F1000
G01 X50.083333 Y-15.5 Z0.339869 F1000
G01 X50.5 Y-15.5 Z0.313725 F1000
G01 X51.333333 Y-15.5 Z0.313725 F1000
G01 X51.75 Y-15.5 Z0.169935 F1000
G01 X52.166667 Y-15.5 Z0.026144 F1000
G01 X56.75 Y-15.5 Z0.026144 F1000
G01 X57.166667 Y-15.5 Z0.169935 F1000
G01 X57.583333 Y-15.5 Z0.313725 F1000
G01 X58.416667 Y-15.5 Z0.313725 F1000
G01 X58.833333 Y-15.5 Z0.300654 F1000
G01 X59.25 Y-15.5 Z0.300654 F1000
G01 X59.666667 Y-15.5 Z0.313725 F1000
G01 X60.5 Y-15.5 Z0.313725 F1000
G01 X60.916667 Y-15.5 Z0.169935 F1000
G01 X61.333333 Y-15.5 Z0.026144 F1000
G01 X70.5 Y-15.5 Z0.026144 F1000
G01 X70.916667 Y-15.5 Z0.222222 F1000
G01 X71.333333 Y-15.5 Z0.287582 F1000
G01 X71.75 Y-15.5 Z0.287582 F1000
G01 X72.166667 Y-15.5 Z0.300654 F1000
G01 X72.583333 Y-15.5 Z0.300654 F1000
G01 X73 Y-15.5 Z0.313725 F1000
G01 X73.833333 Y-15.5 Z0.313725 F1000
G01 X74.25 Y-15.5 Z0.169935 F1000
G01 X74.666667 Y-15.5 Z0.169935 F1000
G01 X75.083333 Y-15.5 Z0.026144 F1000
G01 X76.75 Y-15.5 Z0.026144 F1000
G01 X77.166667 Y-15.5 Z0.156863 F1000
G01 X77.583333 Y-15.5 Z0.27451 F1000
G01 X78.416667 Y-15.5 Z0.27451 F1000
G01 X78.833333 Y-15.5 Z0.130719 F1000
G01 X81.333333 Y-15.5 Z0.130719 F1000
G01 X81.75 Y-15.5 Z0.117647 F1000
G01 X82.166667 Y-15.5 Z0.117647 F1000
G01 X82.583333 Y-15.5 Z0 F1000
G01 X99.666667 Y-15.5 Z0 F1000
G01 X99.666667 Y-15.916667 Z0 F1000
G01 X99.666667 Y-16.333333 Z0 F1000
G01 X82.583333 Y-16.333333 Z0 F1000
G01 X82.166667 Y-16.333333 Z0.117647 F1000
G01 X81.75 Y-16.333333 Z0.130719 F1000
G01 X79.25 Y-16.333333 Z0.130719 F1000
G01 X78.833333 Y-16.333333 Z0.20915 F1000
G01 X78.416667 Y-16.333333 Z0.339869 F1000
G01 X77.583333 Y-16.333333 Z0.339869 F1000
G01 X77.166667 Y-16.333333 Z0.156863 F1000
G01 X76.75 Y-16.333333 Z0.026144 F1000
G01 X75.5 Y-16.333333 Z0.026144 F1000
G01 X75.083333 Y-16.333333 Z0.156863 F1000
G01 X74.666667 Y-16.333333 Z0.313725 F1000
G01 X72.583333 Y-16.333333 Z0.313725 F1000
G01 X72.166667 Y-16.333333 Z0.300654 F1000
G01 X71.75 Y-16.333333 Z0.169935 F1000
G01 X71.333333 Y-16.333333 Z0.026144 F1000
G01 X65.083333 Y-16.333333 Z0.026144 F1000
G01 X64.666667 Y-16.333333 Z0.169935 F1000
G01 X64.25 Y-16.333333 Z0.169935 F1000
G01 X63.833333 Y-16.333333 Z0.222222 F1000
G01 X61.75 Y-16.333333 Z0.222222 F1000
G01 X61.333333 Y-16.333333 Z0.169935 F1000
G01 X60.916667 Y-16.333333 Z0.169935 F1000
G01 X60.5 Y-16.333333 Z0.026144 F1000
G01 X60.083333 Y-16.333333 Z0.222222 F1000
G01 X59.666667 Y-16.333333 Z0.27451 F1000
G01 X59.25 Y-16.333333 Z0.313725 F1000
G01 X57.166667 Y-16.333333 Z0.313725 F1000
G01 X56.75 Y-16.333333 Z0.169935 F1000
G01 X56.333333 Y-16.333333 Z0.026144 F1000
G01 X52.583333 Y-16.333333 Z0.026144 F1000
G01 X52.166667 Y-16.333333 Z0.169935 F1000
G01 X51.75 Y-16.333333 Z0.313725 F1000
G01 X50.5 Y-16.333333 Z0.313725 F1000
G01 X50.083333 Y-16.333333 Z0.339869 F1000
G01 X49.25 Y-16.333333 Z0.339869 F1000
G01 X48.833333 Y-16.333333 Z0.169935 F1000
G01 X48.416667 Y-16.333333 Z0.026144 F1000
G01 X48 Y-16.333333 Z0.026144 F1000
G01 X47.583333 Y-16.333333 Z0.169935 F1000
G01 X46.333333 Y-16.333333 Z0.169935 F1000
G01 X45.916667 Y-16.333333 Z0.222222 F1000
G01 X43.416667 Y-16.333333 Z0.222222 F1000
G01 X43 Y-16.333333 Z0.169935 F1000
G01 X42.166667 Y-16.333333 Z0.169935 F1000
G01 X41.75 Y-16.333333 Z0.026144 F1000
G01 X38 Y-16.333333 Z0.026144 F1000
G01 X37.583333 Y-16.333333 Z0.222222 F1000
G01 X37.166667 Y-16.333333 Z0.300654 F1000
G01 X36.75 Y-16.333333 Z0.339869 F1000
G01 X35.916667 Y-16.333333 Z0.339869 F1000
G01 X35.5 Y-16.333333 Z0.287582 F1000
G01 X35.083333 Y-16.333333 Z0.287582 F1000
G01 X34.666667 Y-16.333333 Z0.222222 F1000
G01 X34.25 Y-16.333333 Z0.026144 F1000
G01 X33.833333 Y-16.333333 Z0.026144 F1000
G01 X33.416667 Y-16.333333 Z0.169935 F1000
G01 X33 Y-16.333333 Z0.339869 F1000
G01 X32.166667 Y-16.333333 Z0.339869 F1000
G01 X31.75 Y-16.333333 Z0.20915 F1000
G01 X31.333333 Y-16.333333 Z0.065359 F1000
G01 X30.916667 Y-16.333333 Z0 F1000
G01 X23.833333 Y-16.333333 Z0 F1000
G01 X23.416667 Y-16.333333 Z0.117647 F1000
G01 X23 Y-16.333333 Z0.117647 F1000
G01 X22.583333 Y-16.333333 Z0.339869 F1000
G01 X21.75 Y-16.333333 Z0.339869 F1000
G01 X21.333333 Y-16.333333 Z0.27451 F1000
G01 X20.916667 Y-16.333333 Z0.183007 F1000
G01 X20.5 Y-16.333333 Z0.052288 F1000
G01 X20.083333 Y-16.333333 Z0 F1000
G01 X19.666667 Y-16.333333 Z0.117647 F1000
G01 X19.25 Y-16.333333 Z0.117647 F1000
G01 X18.833333 Y-16.333333 Z0.300654 F1000
G01 X18.416667 Y-16.333333 Z0.339869 F1000
G01 X17.583333 Y-16.333333 Z0.339869 F1000
G01 X17.166667 Y-16.333333 Z0.313725 F1000
G01 X16.333333 Y-16.333333 Z0.313725 F1000
G01 X15.916667 Y-16.333333 Z0.300654 F1000
G01 X15.5 Y-16.333333 Z0.130719 F1000
G01 X15.083333 Y-16.333333 Z0.117647 F1000
G01 X14.666667 Y-16.333333 Z0 F1000
G01 X0.5 Y-16.333333 Z0 F1000
G01 X0.5 Y-16.75 Z0 F1000
G01 X0.5 Y-17.166667 Z0 F1000
G01 X9.666667 Y-17.166667 Z0 F1000
G01 X10.083333 Y-17.166667 Z0.052288 F1000
G01 X10.5 Y-17.166667 Z0.091503 F1000
G01 X10.916667 Y-17.166667 Z0.20915 F1000
G01 X11.333333 Y-17.166667 Z0.300654 F1000
G01 X12.166667 Y-17.166667 Z0.300654 F1000
G01 X12.583333 Y-17.166667 Z0.248366 F1000
G01 X13 Y-17.166667 Z0.117647 F1000
G01 X13.416667 Y-17.166667 Z0.117647 F1000
G01 X13.833333 Y-17.166667 Z0.078431 F1000
G01 X14.25 Y-17.166667 Z0.065359 F1000
G01 X14.666667 Y-17.166667 Z0 F1000
G01 X15.083333 Y-17.166667 Z0 F1000
G01 X15.5 Y-17.166667 Z0.065359 F1000
G01 X15.916667 Y-17.166667 Z0.20915 F1000
G01 X16.333333 Y-17.166667 Z0.339869 F1000
G01 X17.166667 Y-17.166667 Z0.339869 F1000
G01 X17.583333 Y-17.166667 Z0.222222 F1000
G01 X18 Y-17.166667 Z0.313725 F1000
G01 X18.833333 Y-17.166667 Z0.313725 F1000
G01 X19.25 Y-17.166667 Z0.261438 F1000
G01 X19.666667 Y-17.166667 Z0.117647 F1000
G01 X20.5 Y-17.166667 Z0.117647 F1000
G01 X20.916667 Y-17.166667 Z0.339869 F1000
G01 X22.583333 Y-17.166667 Z0.339869 F1000
G01 X23 Y-17.166667 Z0.117647 F1000
G01 X23.416667 Y-17.166667 Z0.117647 F1000
G01 X23.833333 Y-17.166667 Z0 F1000
G01 X30.5 Y-17.166667 Z0 F1000
G01 X30.916667 Y-17.166667 Z0.117647 F1000
G01 X31.333333 Y-17.166667 Z0.117647 F1000
G01 X31.75 Y-17.166667 Z0.261438 F1000
G01 X32.166667 Y-17.166667 Z0.313725 F1000
G01 X33 Y-17.166667 Z0.313725 F1000
G01 X33.416667 Y-17.166667 Z0.169935 F1000
G01 X33.833333 Y-17.166667 Z0.169935 F1000
G01 X34.25 Y-17.166667 Z0.313725 F1000
G01 X35.083333 Y-17.166667 Z0.313725 F1000
G01 X35.5 Y-17.166667 Z0.339869 F1000
G01 X36.75 Y-17.166667 Z0.339869 F1000
G01 X37.166667 Y-17.166667 Z0.169935 F1000
G01 X37.583333 Y-17.166667 Z0.026144 F1000
G01 X40.083333 Y-17.166667 Z0.026144 F1000
G01 X40.5 Y-17.166667 Z0.169935 F1000
G01 X40.916667 Y-17.166667 Z0.169935 F1000
G01 X41.333333 Y-17.166667 Z0.313725 F1000
G01 X43.416667 Y-17.166667 Z0.313725 F1000
G01 X43.833333 Y-17.166667 Z0.287582 F1000
G01 X44.25 Y-17.166667 Z0.27451 F1000
G01 X44.666667 Y-17.166667 Z0.27451 F1000
G01 X45.083333 Y-17.166667 Z0.261438 F1000
G01 X45.5 Y-17.166667 Z0.27451 F1000
G01 X45.916667 Y-17.166667 Z0.339869 F1000
G01 X46.75 Y-17.166667 Z0.339869 F1000
G01 X47.166667 Y-17.166667 Z0.287582 F1000
G01 X48 Y-17.166667 Z0.287582 F1000
G01 X48.416667 Y-17.166667 Z0.169935 F1000
G01 X49.25 Y-17.166667 Z0.169935 F1000
G01 X49.666667 Y-17.166667 Z0.313725 F1000
G01 X51.75 Y-17.166667 Z0.313725 F1000
G01 X52.166667 Y-17.166667 Z0.169935 F1000
G01 X52.583333 Y-17.166667 Z0.026144 F1000
G01 X55.916667 Y-17.166667 Z0.026144 F1000
G01 X56.333333 Y-17.166667 Z0.169935 F1000
G01 X56.75 Y-17.166667 Z0.169935 F1000
G01 X57.166667 Y-17.166667 Z0.313725 F1000
G01 X59.25 Y-17.166667 Z0.313725 F1000
G01 X59.666667 Y-17.166667 Z0.169935 F1000
G01 X60.083333 Y-17.166667 Z0.287582 F1000
G01 X62.166667 Y-17.166667 Z0.287582 F1000
G01 X62.583333 Y-17.166667 Z0.27451 F1000
G01 X63 Y-17.166667 Z0.27451 F1000
G01 X63.416667 Y-17.166667 Z0.339869 F1000
G01 X64.25 Y-17.166667 Z0.339869 F1000
G01 X64.666667 Y-17.166667 Z0.300654 F1000
G01 X65.5 Y-17.166667 Z0.300654 F1000
G01 X65.916667 Y-17.166667 Z0.287582 F1000
G01 X66.333333 Y-17.166667 Z0.169935 F1000
G01 X66.75 Y-17.166667 Z0.156863 F1000
G01 X67.166667 Y-17.166667 Z0.026144 F1000
G01 X71.75 Y-17.166667 Z0.026144 F1000
G01 X72.166667 Y-17.166667 Z0.169935 F1000
G01 X72.583333 Y-17.166667 Z0.313725 F1000
G01 X74.666667 Y-17.166667 Z0.313725 F1000
G01 X75.083333 Y-17.166667 Z0.287582 F1000
G01 X75.5 Y-17.166667 Z0.169935 F1000
G01 X75.916667 Y-17.166667 Z0.026144 F1000
G01 X77.166667 Y-17.166667 Z0.026144 F1000
G01 X77.583333 Y-17.166667 Z0.169935 F1000
G01 X78 Y-17.166667 Z0.27451 F1000
G01 X78.833333 Y-17.166667 Z0.27451 F1000
G01 X79.25 Y-17.166667 Z0.130719 F1000
G01 X82.166667 Y-17.166667 Z0.130719 F1000
G01 X82.583333 Y-17.166667 Z0.065359 F1000
G01 X83 Y-17.166667 Z0 F1000
G01 X99.666667 Y-17.166667 Z0 F1000
G01 X99.666667 Y-17.583333 Z0 F1000
G01 X99.666667 Y-18 Z0 F1000
G01 X83.416667 Y-18 Z0 F1000
G01 X83 Y-18 Z0.117647 F1000
G01 X82.583333 Y-18 Z0.117647 F1000
G01 X82.166667 Y-18 Z0.130719 F1000
G01 X79.666667 Y-18 Z0.130719 F1000
G01 X79.25 Y-18 Z0.20915 F1000
G01 X78.833333 Y-18 Z0.313725 F1000
G01 X78 Y-18 Z0.313725 F1000
G01 X77.583333 Y-18 Z0.169935 F1000
G01 X77.166667 Y-18 Z0.026144 F1000
G01 X76.333333 Y-18 Z0.026144 F1000
G01 X75.916667 Y-18 Z0.169935 F1000
G01 X75.5 Y-18 Z0.313725 F1000
G01 X74.666667 Y-18 Z0.313725 F1000
G01 X74.25 Y-18 Z0.287582 F1000
G01 X73.416667 Y-18 Z0.287582 F1000
G01 X73 Y-18 Z0.222222 F1000
G01 X72.583333 Y-18 Z0.169935 F1000
G01 X72.166667 Y-18 Z0.026144 F1000
G01 X68.416667 Y-18 Z0.026144 F1000
G01 X68 Y-18 Z0.156863 F1000
G01 X67.583333 Y-18 Z0.287582 F1000
G01 X65.916667 Y-18 Z0.287582 F1000
G01 X65.5 Y-18 Z0.300654 F1000
G01 X64.666667 Y-18 Z0.300654 F1000
G01 X64.25 Y-18 Z0.248366 F1000
G01 X63.833333 Y-18 Z0.20915 F1000
G01 X63.416667 Y-18 Z0.183007 F1000
G01 X63 Y-18 Z0.130719 F1000
G01 X62.583333 Y-18 Z0.130719 F1000
G01 X62.166667 Y-18 Z0.183007 F1000
G01 X61.75 Y-18 Z0.183007 F1000
G01 X61.333333 Y-18 Z0.261438 F1000
G01 X60.916667 Y-18 Z0.287582 F1000
G01 X60.5 Y-18 Z0.287582 F1000
G01 X60.083333 Y-18 Z0.313725 F1000
G01 X57.583333 Y-18 Z0.313725 F1000
G01 X57.166667 Y-18 Z0.287582 F1000
G01 X56.75 Y-18 Z0.287582 F1000
G01 X56.333333 Y-18 Z0.169935 F1000
G01 X55.916667 Y-18 Z0.026144 F1000
G01 X53 Y-18 Z0.026144 F1000
G01 X52.583333 Y-18 Z0.169935 F1000
G01 X52.166667 Y-18 Z0.313725 F1000
G01 X50.083333 Y-18 Z0.313725 F1000
G01 X49.666667 Y-18 Z0.287582 F1000
G01 X49.25 Y-18 Z0.313725 F1000
G01 X48.416667 Y-18 Z0.313725 F1000
G01 X48 Y-18 Z0.287582 F1000
G01 X47.166667 Y-18 Z0.287582 F1000
G01 X46.75 Y-18 Z0.248366 F1000
G01 X46.333333 Y-18 Z0.183007 F1000
G01 X45.916667 Y-18 Z0.183007 F1000
G01 X45.5 Y-18 Z0.130719 F1000
G01 X43.833333 Y-18 Z0.130719 F1000
G01 X43.416667 Y-18 Z0.183007 F1000
G01 X43 Y-18 Z0.248366 F1000
G01 X42.583333 Y-18 Z0.27451 F1000
G01 X42.166667 Y-18 Z0.313725 F1000
G01 X40.5 Y-18 Z0.313725 F1000
G01 X40.083333 Y-18 Z0.27451 F1000
G01 X39.666667 Y-18 Z0.169935 F1000
G01 X38.833333 Y-18 Z0.169935 F1000
G01 X38.416667 Y-18 Z0.026144 F1000
G01 X37.166667 Y-18 Z0.026144 F1000
G01 X36.75 Y-18 Z0.169935 F1000
G01 X36.333333 Y-18 Z0.339869 F1000
G01 X35.5 Y-18 Z0.339869 F1000
G01 X35.083333 Y-18 Z0.313725 F1000
G01 X34.25 Y-18 Z0.313725 F1000
G01 X33.833333 Y-18 Z0.222222 F1000
G01 X33.416667 Y-18 Z0.026144 F1000
G01 X33 Y-18 Z0.156863 F1000
G01 X32.583333 Y-18 Z0.261438 F1000
G01 X31.75 Y-18 Z0.261438 F1000
G01 X31.333333 Y-18 Z0.117647 F1000
G01 X30.916667 Y-18 Z0.117647 F1000
G01 X30.5 Y-18 Z0 F1000
G01 X23.416667 Y-18 Z0 F1000
G01 X23 Y-18 Z0.078431 F1000
G01 X22.583333 Y-18 Z0.27451 F1000
G01 X22.166667 Y-18 Z0.27451 F1000
G01 X21.75 Y-18 Z0.339869 F1000
G01 X20.916667 Y-18 Z0.339869 F1000
G01 X20.5 Y-18 Z0.27451 F1000
G01 X20.083333 Y-18 Z0.117647 F1000
G01 X19.666667 Y-18 Z0.261438 F1000
G01 X19.25 Y-18 Z0.339869 F1000
G01 X18.416667 Y-18 Z0.339869 F1000
G01 X18 Y-18 Z0.169935 F1000
G01 X17.583333 Y-18 Z0.156863 F1000
G01 X17.166667 Y-18 Z0.300654 F1000
G01 X16.333333 Y-18 Z0.300654 F1000
G01 X15.916667 Y-18 Z0.183007 F1000
G01 X15.5 Y-18 Z0.117647 F1000
G01 X15.083333 Y-18 Z0.130719 F1000
G01 X14.666667 Y-18 Z0.20915 F1000
G01 X14.25 Y-18 Z0.300654 F1000
G01 X13.833333 Y-18 Z0.339869 F1000
G01 X10.916667 Y-18 Z0.339869 F1000
G01 X10.5 Y-18 Z0.183007 F1000
G01 X10.083333 Y-18 Z0.065359 F1000
G01 X9.666667 Y-18 Z0 F1000
G01 X0.5 Y-18 Z0 F1000
G01 X0.5 Y-18.416667 Z0 F1000
G01 X0.5 Y-18.833333 Z0 F1000
G01 X9.666667 Y-18.833333 Z0 F1000
G01 X10.083333 Y-18.833333 Z0.052288 F1000
G01 X10.5 Y-18.833333 Z0.183007 F1000
G01 X10.916667 Y-18.833333 Z0.339869 F1000
G01 X13.833333 Y-18.833333 Z0.339869 F1000
G01 X14.25 Y-18.833333 Z0.300654 F1000
G01 X14.666667 Y-18.833333 Z0.27451 F1000
G01 X15.083333 Y-18.833333 Z0.287582 F1000
G01 X15.916667 Y-18.833333 Z0.287582 F1000
G01 X16.333333 Y-18.833333 Z0.339869 F1000
G01 X17.166667 Y-18.833333 Z0.339869 F1000
G01 X17.583333 Y-18.833333 Z0.222222 F1000
G01 X18 Y-18.833333 Z0.169935 F1000
G01 X18.416667 Y-18.833333 Z0.169935 F1000
G01 X18.833333 Y-18.833333 Z0.339869 F1000
G01 X19.666667 Y-18.833333 Z0.339869 F1000
G01 X20.083333 Y-18.833333 Z0.313725 F1000
G01 X22.166667 Y-18.833333 Z0.313725 F1000
G01 X22.583333 Y-18.833333 Z0.248366 F1000
G01 X23 Y-18.833333 Z0.065359 F1000
G01 X23.416667 Y-18.833333 Z0 F1000
G01 X30.5 Y-18.833333 Z0 F1000
G01 X30.916667 Y-18.833333 Z0.117647 F1000
G01 X31.333333 Y-18.833333 Z0.117647 F1000
G01 X31.75 Y-18.833333 Z0.261438 F1000
G01 X32.583333 Y-18.833333 Z0.261438 F1000
G01 X33 Y-18.833333 Z0.156863 F1000
G01 X33.416667 Y-18.833333 Z0.169935 F1000
G01 X33.833333 Y-18.833333 Z0.313725 F1000
G01 X34.666667 Y-18.833333 Z0.313725 F1000
G01 X35.083333 Y-18.833333 Z0.300654 F1000
G01 X35.916667 Y-18.833333 Z0.300654 F1000
G01 X36.333333 Y-18.833333 Z0.156863 F1000
G01 X36.75 Y-18.833333 Z0.026144 F1000
G01 X37.583333 Y-18.833333 Z0.026144 F1000
G01 X38 Y-18.833333 Z0.169935 F1000
G01 X38.416667 Y-18.833333 Z0.169935 F1000
G01 X38.833333 Y-18.833333 Z0.300654 F1000
G01 X39.25 Y-18.833333 Z0.339869 F1000
G01 X40.083333 Y-18.833333 Z0.339869 F1000
G01 X40.5 Y-18.833333 Z0.27451 F1000
G01 X40.916667 Y-18.833333 Z0.27451 F1000
G01 X41.333333 Y-18.833333 Z0.183007 F1000
G01 X41.75 Y-18.833333 Z0.130719 F1000
G01 X48 Y-18.833333 Z0.130719 F1000
G01 X48.416667 Y-18.833333 Z0.20915 F1000
G01 X48.833333 Y-18.833333 Z0.287582 F1000
G01 X50.083333 Y-18.833333 Z0.287582 F1000
G01 X50.5 Y-18.833333 Z0.313725 F1000
G01 X50.916667 Y-18.833333 Z0.313725 F1000
G01 X51.333333 Y-18.833333 Z0.339869 F1000
G01 X52.166667 Y-18.833333 Z0.339869 F1000
G01 X52.583333 Y-18.833333 Z0.169935 F1000
G01 X53 Y-18.833333 Z0.026144 F1000
G01 X55.916667 Y-18.833333 Z0.026144 F1000
G01 X56.333333 Y-18.833333 Z0.169935 F1000
G01 X56.75 Y-18.833333 Z0.287582 F1000
G01 X57.166667 Y-18.833333 Z0.287582 F1000
G01 X57.583333 Y-18.833333 Z0.313725 F1000
G01 X58.416667 Y-18.833333 Z0.313725 F1000
G01 X58.833333 Y-18.833333 Z0.287582 F1000
G01 X59.25 Y-18.833333 Z0.27451 F1000
G01 X59.666667 Y-18.833333 Z0.27451 F1000
G01 X60.083333 Y-18.833333 Z0.20915 F1000
G01 X60.5 Y-18.833333 Z0.130719 F1000
G01 X65.916667 Y-18.833333 Z0.130719 F1000
G01 X66.333333 Y-18.833333 Z0.248366 F1000
G01 X66.75 Y-18.833333 Z0.287582 F1000
G01 X67.166667 Y-18.833333 Z0.339869 F1000
G01 X68 Y-18.833333 Z0.339869 F1000
G01 X68.416667 Y-18.833333 Z0.313725 F1000
G01 X68.833333 Y-18.833333 Z0.222222 F1000
G01 X69.25 Y-18.833333 Z0.026144 F1000
G01 X72.583333 Y-18.833333 Z0.026144 F1000
G01 X73 Y-18.833333 Z0.169935 F1000
G01 X73.416667 Y-18.833333 Z0.222222 F1000
G01 X73.833333 Y-18.833333 Z0.313725 F1000
G01 X74.666667 Y-18.833333 Z0.313725 F1000
G01 X75.083333 Y-18.833333 Z0.27451 F1000
G01 X75.5 Y-18.833333 Z0.27451 F1000
G01 X75.916667 Y-18.833333 Z0.169935 F1000
G01 X76.333333 Y-18.833333 Z0.026144 F1000
G01 X77.583333 Y-18.833333 Z0.026144 F1000
G01 X78 Y-18.833333 Z0.313725 F1000
G01 X78.833333 Y-18.833333 Z0.313725 F1000
G01 X79.25 Y-18.833333 Z0.300654 F1000
G01 X79.666667 Y-18.833333 Z0.130719 F1000
G01 X82.583333 Y-18.833333 Z0.130719 F1000
G01 X83 Y-18.833333 Z0.091503 F1000
G01 X83.416667 Y-18.833333 Z0.052288 F1000
G01 X83.833333 Y-18.833333 Z0 F1000
G01 X99.666667 Y-18.833333 Z0 F1000
G01 X99.666667 Y-19.25 Z0 F1000
G01 X99.666667 Y-19.666667 Z0 F1000
G01 X84.25 Y-19.666667 Z0 F1000
G01 X83.833333 Y-19.666667 Z0.117647 F1000
G01 X83.416667 Y-19.666667 Z0.117647 F1000
G01 X83 Y-19.666667 Z0.130719 F1000
G01 X80.083333 Y-19.666667 Z0.130719 F1000
G01 X79.666667 Y-19.666667 Z0.183007 F1000
G01 X79.25 Y-19.666667 Z0.339869 F1000
G01 X78.416667 Y-19.666667 Z0.339869 F1000
G01 X78 Y-19.666667 Z0.169935 F1000
G01 X77.583333 Y-19.666667 Z0.026144 F1000
G01 X76.75 Y-19.666667 Z0.026144 F1000
G01 X76.333333 Y-19.666667 Z0.222222 F1000
G01 X75.916667 Y-19.666667 Z0.287582 F1000
G01 X75.083333 Y-19.666667 Z0.287582 F1000
G01 X74.666667 Y-19.666667 Z0.313725 F1000
G01 X73.833333 Y-19.666667 Z0.313725 F1000
G01 X73.416667 Y-19.666667 Z0.169935 F1000
G01 X73 Y-19.666667 Z0.026144 F1000
G01 X70.083333 Y-19.666667 Z0.026144 F1000
G01 X69.666667 Y-19.666667 Z0.169935 F1000
G01 X69.25 Y-19.666667 Z0.169935 F1000
G01 X68.833333 Y-19.666667 Z0.313725 F1000
G01 X67.583333 Y-19.666667 Z0.313725 F1000
G01 X67.166667 Y-19.666667 Z0.20915 F1000
G01 X66.75 Y-19.666667 Z0.130719 F1000
G01 X59.25 Y-19.666667 Z0.130719 F1000
G01 X58.833333 Y-19.666667 Z0.183007 F1000
G01 X58.416667 Y-19.666667 Z0.300654 F1000
G01 X57.583333 Y-19.666667 Z0.300654 F1000
G01 X57.166667 Y-19.666667 Z0.27451 F1000
G01 X56.75 Y-19.666667 Z0.27451 F1000
G01 X56.333333 Y-19.666667 Z0.156863 F1000
G01 X55.916667 Y-19.666667 Z0.026144 F1000
G01 X53 Y-19.666667 Z0.026144 F1000
G01 X52.583333 Y-19.666667 Z0.169935 F1000
G01 X52.166667 Y-19.666667 Z0.339869 F1000
G01 X51.333333 Y-19.666667 Z0.339869 F1000
G01 X50.916667 Y-19.666667 Z0.313725 F1000
G01 X50.5 Y-19.666667 Z0.313725 F1000
G01 X50.083333 Y-19.666667 Z0.287582 F1000
G01 X49.666667 Y-19.666667 Z0.287582 F1000
G01 X49.25 Y-19.666667 Z0.183007 F1000
G01 X48.833333 Y-19.666667 Z0.130719 F1000
G01 X40.5 Y-19.666667 Z0.130719 F1000
G01 X40.083333 Y-19.666667 Z0.183007 F1000
G01 X39.666667 Y-19.666667 Z0.300654 F1000
G01 X38.833333 Y-19.666667 Z0.300654 F1000
G01 X38.416667 Y-19.666667 Z0.27451 F1000
G01 X38 Y-19.666667 Z0.27451 F1000
G01 X37.583333 Y-19.666667 Z0.222222 F1000
G01 X37.166667 Y-19.666667 Z0.026144 F1000
G01 X36.75 Y-19.666667 Z0.026144 F1000
G01 X36.333333 Y-19.666667 Z0.156863 F1000
G01 X35.916667 Y-19.666667 Z0.313725 F1000
G01 X33.833333 Y-19.666667 Z0.313725 F1000
G01 X33.416667 Y-19.666667 Z0.169935 F1000
G01 X33 Y-19.666667 Z0.156863 F1000
G01 X32.583333 Y-19.666667 Z0.261438 F1000
G01 X31.75 Y-19.666667 Z0.261438 F1000
G01 X31.333333 Y-19.666667 Z0.117647 F1000
G01 X30.916667 Y-19.666667 Z0.117647 F1000
G01 X30.5 Y-19.666667 Z0 F1000
G01 X23.416667 Y-19.666667 Z0 F1000
G01 X23 Y-19.666667 Z0.117647 F1000
G01 X22.583333 Y-19.666667 Z0.183007 F1000
G01 X22.166667 Y-19.666667 Z0.313725 F1000
G01 X20.916667 Y-19.666667 Z0.313725 F1000
G01 X20.5 Y-19.666667 Z0.339869 F1000
G01 X18.833333 Y-19.666667 Z0.339869 F1000
G01 X18.416667 Y-19.666667 Z0.300654 F1000
G01 X18 Y-19.666667 Z0.169935 F1000
G01 X17.583333 Y-19.666667 Z0.156863 F1000
G01 X17.166667 Y-19.666667 Z0.339869 F1000
G01 X16.333333 Y-19.666667 Z0.339869 F1000
G01 X15.916667 Y-19.666667 Z0.287582 F1000
G01 X15.083333 Y-19.666667 Z0.287582 F1000
G01 X14.666667 Y-19.666667 Z0.222222 F1000
G01 X13.833333 Y-19.666667 Z0.222222 F1000
G01 X13.416667 Y-19.666667 Z0.27451 F1000
G01 X13 Y-19.666667 Z0.287582 F1000
G01 X12.583333 Y-19.666667 Z0.339869 F1000
G01 X11.75 Y-19.666667 Z0.339869 F1000
G01 X11.333333 Y-19.666667 Z0.248366 F1000
G01 X10.916667 Y-19.666667 Z0.130719 F1000
G01 X10.5 Y-19.666667 Z0.065359 F1000
G01 X10.083333 Y-19.666667 Z0 F1000
G01 X0.5 Y-19.666667 Z0 F1000
G01 X0.5 Y-20.083333 Z0 F1000
G01 X0.5 Y-20.5 Z0 F1000
G01 X10.916667 Y-20.5 Z0 F1000
G01 X11.333333 Y-20.5 Z0.065359 F1000
G01 X11.75 Y-20.5 Z0.091503 F1000
G01 X12.166667 Y-20.5 Z0.183007 F1000
G01 X12.583333 Y-20.5 Z0.27451 F1000
G01 X14.25 Y-20.5 Z0.27451 F1000
G01 X14.666667 Y-20.5 Z0.222222 F1000
G01 X15.083333 Y-20.5 Z0.169935 F1000
G01 X16.333333 Y-20.5 Z0.169935 F1000
G01 X16.75 Y-20.5 Z0.026144 F1000
G01 X17.583333 Y-20.5 Z0.026144 F1000
G01 X18 Y-20.5 Z0.169935 F1000
G01 X18.416667 Y-20.5 Z0.300654 F1000
G01 X19.25 Y-20.5 Z0.300654 F1000
G01 X19.666667 Y-20.5 Z0.27451 F1000
G01 X20.083333 Y-20.5 Z0.27451 F1000
G01 X20.5 Y-20.5 Z0.222222 F1000
G01 X20.916667 Y-20.5 Z0.156863 F1000
G01 X21.333333 Y-20.5 Z0.300654 F1000
G01 X22.166667 Y-20.5 Z0.300654 F1000
G01 X22.583333 Y-20.5 Z0.104575 F1000
G01 X23 Y-20.5 Z0 F1000
G01 X29.25 Y-20.5 Z0 F1000
G01 X29.666667 Y-20.5 Z0.117647 F1000
G01 X30.916667 Y-20.5 Z0.117647 F1000
G01 X31.333333 Y-20.5 Z0.183007 F1000
G01 X31.75 Y-20.5 Z0.287582 F1000
G01 X32.583333 Y-20.5 Z0.287582 F1000
G01 X33 Y-20.5 Z0.156863 F1000
G01 X33.416667 Y-20.5 Z0.026144 F1000
G01 X33.833333 Y-20.5 Z0.169935 F1000
G01 X34.25 Y-20.5 Z0.313725 F1000
G01 X35.916667 Y-20.5 Z0.313725 F1000
G01 X36.333333 Y-20.5 Z0.026144 F1000
G01 X36.75 Y-20.5 Z0.156863 F1000
G01 X37.166667 Y-20.5 Z0.339869 F1000
G01 X38 Y-20.5 Z0.339869 F1000
G01 X38.416667 Y-20.5 Z0.27451 F1000
G01 X38.833333 Y-20.5 Z0.27451 F1000
G01 X39.25 Y-20.5 Z0.130719 F1000
G01 X49.666667 Y-20.5 Z0.130719 F1000
G01 X50.083333 Y-20.5 Z0.20915 F1000
G01 X50.5 Y-20.5 Z0.313725 F1000
G01 X51.333333 Y-20.5 Z0.313725 F1000
G01 X51.75 Y-20.5 Z0.169935 F1000
G01 X52.166667 Y-20.5 Z0.169935 F1000
G01 X52.583333 Y-20.5 Z0.026144 F1000
G01 X55.083333 Y-20.5 Z0.026144 F1000
G01 X55.5 Y-20.5 Z0.169935 F1000
G01 X55.916667 Y-20.5 Z0.169935 F1000
G01 X56.333333 Y-20.5 Z0.287582 F1000
G01 X57.166667 Y-20.5 Z0.287582 F1000
G01 X57.583333 Y-20.5 Z0.27451 F1000
G01 X58 Y-20.5 Z0.130719 F1000
G01 X67.583333 Y-20.5 Z0.130719 F1000
G01 X68 Y-20.5 Z0.248366 F1000
G01 X68.416667 Y-20.5 Z0.27451 F1000
G01 X68.833333 Y-20.5 Z0.313725 F1000
G01 X69.666667 Y-20.5 Z0.313725 F1000
G01 X70.083333 Y-20.5 Z0.169935 F1000
G01 X70.5 Y-20.5 Z0.026144 F1000
G01 X73.416667 Y-20.5 Z0.026144 F1000
G01 X73.833333 Y-20.5 Z0.169935 F1000
G01 X74.25 Y-20.5 Z0.313725 F1000
G01 X75.083333 Y-20.5 Z0.313725 F1000
G01 X75.5 Y-20.5 Z0.300654 F1000
G01 X75.916667 Y-20.5 Z0.287582 F1000
G01 X76.333333 Y-20.5 Z0.222222 F1000
G01 X76.75 Y-20.5 Z0.026144 F1000
G01 X77.583333 Y-20.5 Z0.026144 F1000
G01 X78 Y-20.5 Z0.169935 F1000
G01 X78.416667 Y-20.5 Z0.339869 F1000
G01 X79.25 Y-20.5 Z0.339869 F1000
G01 X79.666667 Y-20.5 Z0.248366 F1000
G01 X80.083333 Y-20.5 Z0.130719 F1000
G01 X83.416667 Y-20.5 Z0.130719 F1000
G01 X83.833333 Y-20.5 Z0.117647 F1000
G01 X84.25 Y-20.5 Z0 F1000
G01 X99.666667 Y-20.5 Z0 F1000
G01 X99.666667 Y-20.916667 Z0 F1000
G01 X99.666667 Y-21.333333 Z0 F1000
G01 X84.666667 Y-21.333333 Z0 F1000
G01 X84.25 Y-21.333333 Z0.117647 F1000
G01 X83.833333 Y-21.333333 Z0.117647 F1000
G01 X83.416667 Y-21.333333 Z0.130719 F1000
G01 X80.083333 Y-21.333333 Z0.130719 F1000
G01 X79.666667 Y-21.333333 Z0.300654 F1000
G01 X78.833333 Y-21.333333 Z0.300654 F1000
G01 X78.416667 Y-21.333333 Z0.169935 F1000
G01 X78 Y-21.333333 Z0.169935 F1000
G01 X77.583333 Y-21.333333 Z0.026144 F1000
G01 X76.333333 Y-21.333333 Z0.026144 F1000
G01 X75.916667 Y-21.333333 Z0.169935 F1000
G01 X74.25 Y-21.333333 Z0.169935 F1000
G01 X73.833333 Y-21.333333 Z0.026144 F1000
G01 X70.916667 Y-21.333333 Z0.026144 F1000
G01 X70.5 Y-21.333333 Z0.169935 F1000
G01 X70.083333 Y-21.333333 Z0.339869 F1000
G01 X69.25 Y-21.333333 Z0.339869 F1000
G01 X68.833333 Y-21.333333 Z0.313725 F1000
G01 X68.416667 Y-21.333333 Z0.20915 F1000
G01 X68 Y-21.333333 Z0.130719 F1000
G01 X64.666667 Y-21.333333 Z0.130719 F1000
G01 X64.25 Y-21.333333 Z0.261438 F1000
G01 X63.833333 Y-21.333333 Z0.470588 F1000
G01 X63.416667 Y-21.333333 Z0.48366 F1000
G01 X61.333333 Y-21.333333 Z0.48366 F1000
G01 X60.916667 Y-21.333333 Z0.261438 F1000
G01 X60.5 Y-21.333333 Z0.130719 F1000
G01 X57.583333 Y-21.333333 Z0.130719 F1000
G01 X57.166667 Y-21.333333 Z0.20915 F1000
G01 X56.75 Y-21.333333 Z0.300654 F1000
G01 X55.916667 Y-21.333333 Z0.300654 F1000
G01 X55.5 Y-21.333333 Z0.222222 F1000
G01 X55.083333 Y-21.333333 Z0.169935 F1000
G01 X54.666667 Y-21.333333 Z0.026144 F1000
G01 X52.583333 Y-21.333333 Z0.026144 F1000
G01 X52.166667 Y-21.333333 Z0.169935 F1000
G01 X51.75 Y-21.333333 Z0.287582 F1000
G01 X50.916667 Y-21.333333 Z0.287582 F1000
G01 X50.5 Y-21.333333 Z0.20915 F1000
G01 X50.083333 Y-21.333333 Z0.130719 F1000
G01 X47.583333 Y-21.333333 Z0.130719 F1000
G01 X47.166667 Y-21.333333 Z0.287582 F1000
G01 X46.333333 Y-21.333333 Z0.287582 F1000
G01 X45.916667 Y-21.333333 Z0.470588 F1000
G01 X45.083333 Y-21.333333 Z0.470588 F1000
G01 X44.666667 Y-21.333333 Z0.27451 F1000
G01 X44.25 Y-21.333333 Z0.287582 F1000
G01 X43.416667 Y-21.333333 Z0.287582 F1000
G01 X43 Y-21.333333 Z0.20915 F1000
G01 X42.583333 Y-21.333333 Z0.130719 F1000
G01 X38.833333 Y-21.333333 Z0.130719 F1000
G01 X38.416667 Y-21.333333 Z0.183007 F1000
G01 X38 Y-21.333333 Z0.339869 F1000
G01 X37.166667 Y-21.333333 Z0.339869 F1000
G01 X36.75 Y-21.333333 Z0.313725 F1000
G01 X36.333333 Y-21.333333 Z0.156863 F1000
G01 X35.916667 Y-21.333333 Z0.026144 F1000
G01 X33.416667 Y-21.333333 Z0.026144 F1000
G01 X33 Y-21.333333 Z0.156863 F1000
G01 X32.583333 Y-21.333333 Z0.287582 F1000
G01 X32.166667 Y-21.333333 Z0.313725 F1000
G01 X31.333333 Y-21.333333 Z0.313725 F1000
G01 X30.916667 Y-21.333333 Z0.339869 F1000
G01 X30.083333 Y-21.333333 Z0.339869 F1000
G01 X29.666667 Y-21.333333 Z0.261438 F1000
G01 X29.25 Y-21.333333 Z0.183007 F1000
G01 X28.833333 Y-21.333333 Z0.117647 F1000
G01 X28.416667 Y-21.333333 Z0.065359 F1000
G01 X28 Y-21.333333 Z0 F1000
G01 X23 Y-21.333333 Z0 F1000
G01 X22.583333 Y-21.333333 Z0.117647 F1000
G01 X22.166667 Y-21.333333 Z0.248366 F1000
G01 X21.75 Y-21.333333 Z0.339869 F1000
G01 X20.916667 Y-21.333333 Z0.339869 F1000
G01 X20.5 Y-21.333333 Z0.169935 F1000
G01 X20.083333 Y-21.333333 Z0.026144 F1000
G01 X15.916667 Y-21.333333 Z0.026144 F1000
G01 X15.5 Y-21.333333 Z0.156863 F1000
G01 X15.083333 Y-21.333333 Z0.287582 F1000
G01 X14.25 Y-21.333333 Z0.287582 F1000
G01 X13.833333 Y-21.333333 Z0.27451 F1000
G01 X13.416667 Y-21.333333 Z0.27451 F1000
G01 X13 Y-21.333333 Z0.117647 F1000
G01 X11.75 Y-21.333333 Z0.117647 F1000
G01 X11.333333 Y-21.333333 Z0.065359 F1000
G01 X10.916667 Y-21.333333 Z0.065359 F1000
G01 X10.5 Y-21.333333 Z0.117647 F1000
G01 X9.666667 Y-21.333333 Z0.117647 F1000
G01 X9.25 Y-21.333333 Z0 F1000
G01 X0.5 Y-21.333333 Z0 F1000
G01 X0.5 Y-21.75 Z0 F1000
G01 X0.5 Y-22.166667 Z0 F1000
G01 X8.416667 Y-22.166667 Z0 F1000
G01 X8.833333 Y-22.166667 Z0.117647 F1000
G01 X9.25 Y-22.166667 Z0.117647 F1000
G01 X9.666667 Y-22.166667 Z0.183007 F1000
G01 X10.083333 Y-22.166667 Z0.300654 F1000
G01 X10.5 Y-22.166667 Z0.300654 F1000
G01 X10.916667 Y-22.166667 Z0.339869 F1000
G01 X13.416667 Y-22.166667 Z0.339869 F1000
G01 X13.833333 Y-22.166667 Z0.313725 F1000
G01 X14.25 Y-22.166667 Z0.339869 F1000
G01 X15.083333 Y-22.166667 Z0.339869 F1000
G01 X15.5 Y-22.166667 Z0.169935 F1000
G01 X15.916667 Y-22.166667 Z0.026144 F1000
G01 X20.083333 Y-22.166667 Z0.026144 F1000
G01 X20.5 Y-22.166667 Z0.222222 F1000
G01 X20.916667 Y-22.166667 Z0.339869 F1000
G01 X21.75 Y-22.166667 Z0.339869 F1000
G01 X22.166667 Y-22.166667 Z0.117647 F1000
G01 X22.583333 Y-22.166667 Z0.117647 F1000
G01 X23 Y-22.166667 Z0 F1000
G01 X26.75 Y-22.166667 Z0 F1000
G01 X27.166667 Y-22.166667 Z0.065359 F1000
G01 X27.583333 Y-22.166667 Z0.104575 F1000
G01 X28 Y-22.166667 Z0.248366 F1000
G01 X28.416667 Y-22.166667 Z0.339869 F1000
G01 X29.25 Y-22.166667 Z0.339869 F1000
G01 X29.666667 Y-22.166667 Z0.313725 F1000
G01 X30.083333 Y-22.166667 Z0.339869 F1000
G01 X30.916667 Y-22.166667 Z0.339869 F1000
G01 X31.333333 Y-22.166667 Z0.169935 F1000
G01 X32.166667 Y-22.166667 Z0.169935 F1000
G01 X32.583333 Y-22.166667 Z0.026144 F1000
G01 X35.5 Y-22.166667 Z0.026144 F1000
G01 X35.916667 Y-22.166667 Z0.169935 F1000
G01 X36.333333 Y-22.166667 Z0.339869 F1000
G01 X37.166667 Y-22.166667 Z0.339869 F1000
G01 X37.583333 Y-22.166667 Z0.27451 F1000
G01 X38 Y-22.166667 Z0.130719 F1000
G01 X41.75 Y-22.166667 Z0.130719 F1000
G01 X42.166667 Y-22.166667 Z0.20915 F1000
G01 X42.583333 Y-22.166667 Z0.470588 F1000
G01 X43 Y-22.166667 Z0.48366 F1000
G01 X43.833333 Y-22.166667 Z0.48366 F1000
G01 X44.25 Y-22.166667 Z0.287582 F1000
G01 X44.666667 Y-22.166667 Z0.196078 F1000
G01 X45.916667 Y-22.166667 Z0.196078 F1000
G01 X46.333333 Y-22.166667 Z0.287582 F1000
G01 X47.166667 Y-22.166667 Z0.287582 F1000
G01 X47.583333 Y-22.166667 Z0.27451 F1000
G01 X48 Y-22.166667 Z0.248366 F1000
G01 X48.416667 Y-22.166667 Z0.130719 F1000
G01 X50.5 Y-22.166667 Z0.130719 F1000
G01 X50.916667 Y-22.166667 Z0.248366 F1000
G01 X51.333333 Y-22.166667 Z0.339869 F1000
G01 X52.166667 Y-22.166667 Z0.339869 F1000
G01 X52.583333 Y-22.166667 Z0.169935 F1000
G01 X53 Y-22.166667 Z0.026144 F1000
G01 X54.666667 Y-22.166667 Z0.026144 F1000
G01 X55.083333 Y-22.166667 Z0.222222 F1000
G01 X55.5 Y-22.166667 Z0.287582 F1000
G01 X56.333333 Y-22.166667 Z0.287582 F1000
G01 X56.75 Y-22.166667 Z0.20915 F1000
G01 X57.166667 Y-22.166667 Z0.130719 F1000
G01 X59.666667 Y-22.166667 Z0.130719 F1000
G01 X60.083333 Y-22.166667 Z0.287582 F1000
G01 X60.5 Y-22.166667 Z0.470588 F1000
G01 X60.916667 Y-22.166667 Z0.470588 F1000
G01 X61.333333 Y-22.166667 Z0.48366 F1000
G01 X64.666667 Y-22.166667 Z0.48366 F1000
G01 X65.083333 Y-22.166667 Z0.20915 F1000
G01 X65.5 Y-22.166667 Z0.130719 F1000
G01 X68.416667 Y-22.166667 Z0.130719 F1000
G01 X68.833333 Y-22.166667 Z0.183007 F1000
G01 X69.25 Y-22.166667 Z0.339869 F1000
G01 X70.083333 Y-22.166667 Z0.339869 F1000
G01 X70.5 Y-22.166667 Z0.222222 F1000
G01 X70.916667 Y-22.166667 Z0.169935 F1000
G01 X71.333333 Y-22.166667 Z0.026144 F1000
G01 X78 Y-22.166667 Z0.026144 F1000
G01 X78.416667 Y-22.166667 Z0.156863 F1000
G01 X78.833333 Y-22.166667 Z0.300654 F1000
G01 X79.666667 Y-22.166667 Z0.300654 F1000
G01 X80.083333 Y-22.166667 Z0.130719 F1000
G01 X83.833333 Y-22.166667 Z0.130719 F1000
G01 X84.25 Y-22.166667 Z0.117647 F1000
G01 X85.083333 Y-22.166667 Z0.117647 F1000
G01 X85.5 Y-22.166667 Z0 F1000
G01 X99.666667 Y-22.166667 Z0 F1000
G01 X99.666667 Y-22.583333 Z0 F1000
G01 X99.666667 Y-23 Z0 F1000
G01 X87.166667 Y-23 Z0 F1000
G01 X86.75 Y-23 Z0.065359 F1000
G01 X86.333333 Y-23 Z0.091503 F1000
G01 X85.916667 Y-23 Z0.091503 F1000
G01 X85.5 Y-23 Z0.261438 F1000
G01 X85.083333 Y-23 Z0.27451 F1000
G01 X84.666667 Y-23 Z0.287582 F1000
G01 X83.833333 Y-23 Z0.287582 F1000
G01 X83.416667 Y-23 Z0.27451 F1000
G01 X83 Y-23 Z0.248366 F1000
G01 X82.583333 Y-23 Z0.130719 F1000
G01 X80.5 Y-23 Z0.130719 F1000
G01 X80.083333 Y-23 Z0.183007 F1000
G01 X79.666667 Y-23 Z0.339869 F1000
G01 X78.833333 Y-23 Z0.339869 F1000
G01 X78.416667 Y-23 Z0.156863 F1000
G01 X78 Y-23 Z0.026144 F1000
G01 X71.333333 Y-23 Z0.026144 F1000
G01 X70.916667 Y-23 Z0.169935 F1000
G01 X70.5 Y-23 Z0.339869 F1000
G01 X69.666667 Y-23 Z0.339869 F1000
G01 X69.25 Y-23 Z0.20915 F1000
G01 X68.833333 Y-23 Z0.130719 F1000
G01 X65.916667 Y-23 Z0.130719 F1000
G01 X65.5 Y-23 Z0.183007 F1000
G01 X65.083333 Y-23 Z0.470588 F1000
G01 X64.666667 Y-23 Z0.48366 F1000
G01 X63.833333 Y-23 Z0.48366 F1000
G01 X63.416667 Y-23 Z0.196078 F1000
G01 X61.333333 Y-23 Z0.196078 F1000
G01 X60.916667 Y-23 Z0.287582 F1000
G01 X60.5 Y-23 Z0.470588 F1000
G01 X59.666667 Y-23 Z0.470588 F1000
G01 X59.25 Y-23 Z0.130719 F1000
G01 X56.75 Y-23 Z0.130719 F1000
G01 X56.333333 Y-23 Z0.261438 F1000
G01 X55.916667 Y-23 Z0.287582 F1000
G01 X55.083333 Y-23 Z0.287582 F1000
G01 X54.666667 Y-23 Z0.222222 F1000
G01 X54.25 Y-23 Z0.026144 F1000
G01 X53 Y-23 Z0.026144 F1000
G01 X52.583333 Y-23 Z0.222222 F1000
G01 X52.166667 Y-23 Z0.300654 F1000
G01 X51.333333 Y-23 Z0.300654 F1000
G01 X50.916667 Y-23 Z0.130719 F1000
G01 X48.416667 Y-23 Z0.130719 F1000
G01 X48 Y-23 Z0.470588 F1000
G01 X47.166667 Y-23 Z0.470588 F1000
G01 X46.75 Y-23 Z0.196078 F1000
G01 X43.833333 Y-23 Z0.196078 F1000
G01 X43.416667 Y-23 Z0.470588 F1000
G01 X42.166667 Y-23 Z0.470588 F1000
G01 X41.75 Y-23 Z0.248366 F1000
G01 X41.333333 Y-23 Z0.130719 F1000
G01 X37.583333 Y-23 Z0.130719 F1000
G01 X37.166667 Y-23 Z0.339869 F1000
G01 X36.333333 Y-23 Z0.339869 F1000
G01 X35.916667 Y-23 Z0.169935 F1000
G01 X35.5 Y-23 Z0.026144 F1000
G01 X30.5 Y-23 Z0.026144 F1000
G01 X30.083333 Y-23 Z0.156863 F1000
G01 X29.666667 Y-23 Z0.222222 F1000
G01 X29.25 Y-23 Z0.339869 F1000
G01 X28.416667 Y-23 Z0.339869 F1000
G01 X28 Y-23 Z0.300654 F1000
G01 X27.583333 Y-23 Z0.300654 F1000
G01 X27.166667 Y-23 Z0.287582 F1000
G01 X26.75 Y-23 Z0.183007 F1000
G01 X26.333333 Y-23 Z0.117647 F1000
G01 X25.916667 Y-23 Z0.117647 F1000
G01 X25.5 Y-23 Z0 F1000
G01 X23.416667 Y-23 Z0 F1000
G01 X23 Y-23 Z0.117647 F1000
G01 X22.583333 Y-23 Z0.117647 F1000
G01 X22.166667 Y-23 Z0.183007 F1000
G01 X21.75 Y-23 Z0.261438 F1000
G01 X21.333333 Y-23 Z0.313725 F1000
G01 X20.5 Y-23 Z0.313725 F1000
G01 X20.083333 Y-23 Z0.169935 F1000
G01 X19.666667 Y-23 Z0.026144 F1000
G01 X15.5 Y-23 Z0.026144 F1000
G01 X15.083333 Y-23 Z0.169935 F1000
G01 X14.25 Y-23 Z0.169935 F1000
G01 X13.833333 Y-23 Z0.313725 F1000
G01 X13.416667 Y-23 Z0.339869 F1000
G01 X10.5 Y-23 Z0.339869 F1000
G01 X10.083333 Y-23 Z0.300654 F1000
G01 X9.666667 Y-23 Z0.300654 F1000
G01 X9.25 Y-23 Z0.130719 F1000
G01 X8.833333 Y-23 Z0.117647 F1000
G01 X8.416667 Y-23 Z0 F1000
G01 X0.5 Y-23 Z0 F1000
G01 X0.5 Y-23.416667 Z0 F1000
G01 X0.5 Y-23.833333 Z0 F1000
G01 X8.416667 Y-23.833333 Z0 F1000
G01 X8.833333 Y-23.833333 Z0.117647 F1000
G01 X9.25 Y-23.833333 Z0.117647 F1000
G01 X9.666667 Y-23.833333 Z0.183007 F1000
G01 X10.083333 Y-23.833333 Z0.261438 F1000
G01 X10.5 Y-23.833333 Z0.339869 F1000
G01 X11.333333 Y-23.833333 Z0.339869 F1000
G01 X11.75 Y-23.833333 Z0.313725 F1000
G01 X12.166667 Y-23.833333 Z0.27451 F1000
G01 X12.583333 Y-23.833333 Z0.313725 F1000
G01 X13.833333 Y-23.833333 Z0.313725 F1000
G01 X14.25 Y-23.833333 Z0.339869 F1000
G01 X15.083333 Y-23.833333 Z0.339869 F1000
G01 X15.5 Y-23.833333 Z0.026144 F1000
G01 X19.666667 Y-23.833333 Z0.026144 F1000
G01 X20.083333 Y-23.833333 Z0.169935 F1000
G01 X20.5 Y-23.833333 Z0.313725 F1000
G01 X20.916667 Y-23.833333 Z0.313725 F1000
G01 X21.333333 Y-23.833333 Z0.339869 F1000
G01 X22.166667 Y-23.833333 Z0.339869 F1000
G01 X22.583333 Y-23.833333 Z0.313725 F1000
G01 X23 Y-23.833333 Z0.248366 F1000
G01 X23.416667 Y-23.833333 Z0.117647 F1000
G01 X23.833333 Y-23.833333 Z0.052288 F1000
G01 X24.25 Y-23.833333 Z0 F1000
G01 X24.666667 Y-23.833333 Z0 F1000
G01 X25.083333 Y-23.833333 Z0.117647 F1000
G01 X25.5 Y-23.833333 Z0.117647 F1000
G01 X25.916667 Y-23.833333 Z0.248366 F1000
G01 X26.333333 Y-23.833333 Z0.313725 F1000
G01 X27.166667 Y-23.833333 Z0.313725 F1000
G01 X27.583333 Y-23.833333 Z0.287582 F1000
G01 X28 Y-23.833333 Z0.287582 F1000
G01 X28.416667 Y-23.833333 Z0.169935 F1000
G01 X28.833333 Y-23.833333 Z0.169935 F1000
G01 X29.25 Y-23.833333 Z0.026144 F1000
G01 X35.5 Y-23.833333 Z0.026144 F1000
G01 X35.916667 Y-23.833333 Z0.156863 F1000
G01 X36.333333 Y-23.833333 Z0.248366 F1000
G01 X37.166667 Y-23.833333 Z0.248366 F1000
G01 X37.583333 Y-23.833333 Z0.130719 F1000
G01 X41.333333 Y-23.833333 Z0.130719 F1000
G01 X41.75 Y-23.833333 Z0.470588 F1000
G01 X42.583333 Y-23.833333 Z0.470588 F1000
G01 X43 Y-23.833333 Z0.196078 F1000
G01 X46.75 Y-23.833333 Z0.196078 F1000
G01 X47.166667 Y-23.833333 Z0.470588 F1000
G01 X48 Y-23.833333 Z0.470588 F1000
G01 X48.416667 Y-23.833333 Z0.130719 F1000
G01 X50.916667 Y-23.833333 Z0.130719 F1000
G01 X51.333333 Y-23.833333 Z0.248366 F1000
G01 X52.166667 Y-23.833333 Z0.248366 F1000
G01 X52.583333 Y-23.833333 Z0.222222 F1000
G01 X53 Y-23.833333 Z0.026144 F1000
G01 X54.25 Y-23.833333 Z0.026144 F1000
G01 X54.666667 Y-23.833333 Z0.222222 F1000
G01 X55.083333 Y-23.833333 Z0.300654 F1000
G01 X55.916667 Y-23.833333 Z0.300654 F1000
G01 X56.333333 Y-23.833333 Z0.183007 F1000
G01 X56.75 Y-23.833333 Z0.130719 F1000
G01 X58.833333 Y-23.833333 Z0.130719 F1000
G01 X59.25 Y-23.833333 Z0.248366 F1000
G01 X59.666667 Y-23.833333 Z0.48366 F1000
G01 X60.5 Y-23.833333 Z0.48366 F1000
G01 X60.916667 Y-23.833333 Z0.196078 F1000
G01 X63.833333 Y-23.833333 Z0.196078 F1000
G01 X64.25 Y-23.833333 Z0.48366 F1000
G01 X65.083333 Y-23.833333 Z0.48366 F1000
G01 X65.5 Y-23.833333 Z0.20915 F1000
G01 X65.916667 Y-23.833333 Z0.130719 F1000
G01 X69.25 Y-23.833333 Z0.130719 F1000
G01 X69.666667 Y-23.833333 Z0.287582 F1000
G01 X70.5 Y-23.833333 Z0.287582 F1000
G01 X70.916667 Y-23.833333 Z0.156863 F1000
G01 X71.333333 Y-23.833333 Z0.026144 F1000
G01 X78 Y-23.833333 Z0.026144 F1000
G01 X78.416667 Y-23.833333 Z0.169935 F1000
G01 X78.833333 Y-23.833333 Z0.339869 F1000
G01 X79.666667 Y-23.833333 Z0.339869 F1000
G01 X80.083333 Y-23.833333 Z0.20915 F1000
G01 X80.5 Y-23.833333 Z0.130719 F1000
G01 X81.333333 Y-23.833333 Z0.130719 F1000
G01 X81.75 Y-23.833333 Z0.248366 F1000
G01 X82.166667 Y-23.833333 Z0.313725 F1000
G01 X83 Y-23.833333 Z0.313725 F1000
G01 X83.416667 Y-23.833333 Z0.287582 F1000
G01 X84.666667 Y-23.833333 Z0.287582 F1000
G01 X85.083333 Y-23.833333 Z0.339869 F1000
G01 X85.916667 Y-23.833333 Z0.339869 F1000
G01 X86.333333 Y-23.833333 Z0.261438 F1000
G01 X86.75 Y-23.833333 Z0.261438 F1000
G01 X87.166667 Y-23.833333 Z0.130719 F1000
G01 X87.583333 Y-23.833333 Z0.078431 F1000
G01 X88 Y-23.833333 Z0 F1000
G01 X99.666667 Y-23.833333 Z0 F1000
G01 X99.666667 Y-24.25 Z0 F1000
G01 X99.666667 Y-24.666667 Z0 F1000
G01 X88.833333 Y-24.666667 Z0 F1000
G01 X88.416667 Y-24.666667 Z0.052288 F1000
G01 X88 Y-24.666667 Z0.091503 F1000
G01 X87.583333 Y-24.666667 Z0.248366 F1000
G01 X87.166667 Y-24.666667 Z0.261438 F1000
G01 X85.916667 Y-24.666667 Z0.261438 F1000
G01 X85.5 Y-24.666667 Z0.169935 F1000
G01 X85.083333 Y-24.666667 Z0.156863 F1000
G01 X84.666667 Y-24.666667 Z0.026144 F1000
G01 X84.25 Y-24.666667 Z0.026144 F1000
G01 X83.833333 Y-24.666667 Z0.169935 F1000
G01 X83.416667 Y-24.666667 Z0.169935 F1000
G01 X83 Y-24.666667 Z0.313725 F1000
G01 X81.333333 Y-24.666667 Z0.313725 F1000
G01 X80.916667 Y-24.666667 Z0.20915 F1000
G01 X80.5 Y-24.666667 Z0.130719 F1000
G01 X80.083333 Y-24.666667 Z0.20915 F1000
G01 X79.666667 Y-24.666667 Z0.313725 F1000
G01 X78.833333 Y-24.666667 Z0.313725 F1000
G01 X78.416667 Y-24.666667 Z0.169935 F1000
G01 X78 Y-24.666667 Z0.026144 F1000
G01 X71.333333 Y-24.666667 Z0.026144 F1000
G01 X70.916667 Y-24.666667 Z0.156863 F1000
G01 X70.5 Y-24.666667 Z0.287582 F1000
G01 X69.666667 Y-24.666667 Z0.287582 F1000
G01 X69.25 Y-24.666667 Z0.130719 F1000
G01 X65.916667 Y-24.666667 Z0.130719 F1000
G01 X65.5 Y-24.666667 Z0.20915 F1000
G01 X65.083333 Y-24.666667 Z0.48366 F1000
G01 X64.25 Y-24.666667 Z0.48366 F1000
G01 X63.833333 Y-24.666667 Z0.470588 F1000
G01 X63.416667 Y-24.666667 Z0.196078 F1000
G01 X60.916667 Y-24.666667 Z0.196078 F1000
G01 X60.5 Y-24.666667 Z0.48366 F1000
G01 X59.666667 Y-24.666667 Z0.48366 F1000
G01 X59.25 Y-24.666667 Z0.248366 F1000
G01 X58.833333 Y-24.666667 Z0.130719 F1000
G01 X56.333333 Y-24.666667 Z0.130719 F1000
G01 X55.916667 Y-24.666667 Z0.300654 F1000
G01 X55.083333 Y-24.666667 Z0.300654 F1000
G01 X54.666667 Y-24.666667 Z0.169935 F1000
G01 X54.25 Y-24.666667 Z0.169935 F1000
G01 X53.833333 Y-24.666667 Z0.026144 F1000
G01 X53 Y-24.666667 Z0.026144 F1000
G01 X52.583333 Y-24.666667 Z0.222222 F1000
G01 X52.166667 Y-24.666667 Z0.261438 F1000
G01 X51.333333 Y-24.666667 Z0.261438 F1000
G01 X50.916667 Y-24.666667 Z0.130719 F1000
G01 X48.416667 Y-24.666667 Z0.130719 F1000
G01 X48 Y-24.666667 Z0.248366 F1000
G01 X47.583333 Y-24.666667 Z0.48366 F1000
G01 X46.75 Y-24.666667 Z0.48366 F1000
G01 X46.333333 Y-24.666667 Z0.196078 F1000
G01 X43 Y-24.666667 Z0.196078 F1000
G01 X42.583333 Y-24.666667 Z0.470588 F1000
G01 X41.75 Y-24.666667 Z0.470588 F1000
G01 X41.333333 Y-24.666667 Z0.183007 F1000
G01 X40.916667 Y-24.666667 Z0.130719 F1000
G01 X37.583333 Y-24.666667 Z0.130719 F1000
G01 X37.166667 Y-24.666667 Z0.20915 F1000
G01 X36.75 Y-24.666667 Z0.339869 F1000
G01 X35.916667 Y-24.666667 Z0.339869 F1000
G01 X35.5 Y-24.666667 Z0.169935 F1000
G01 X35.083333 Y-24.666667 Z0.026144 F1000
G01 X28 Y-24.666667 Z0.026144 F1000
G01 X27.583333 Y-24.666667 Z0.156863 F1000
G01 X27.166667 Y-24.666667 Z0.313725 F1000
G01 X25.5 Y-24.666667 Z0.313725 F1000
G01 X25.083333 Y-24.666667 Z0.20915 F1000
G01 X24.666667 Y-24.666667 Z0.117647 F1000
G01 X24.25 Y-24.666667 Z0.183007 F1000
G01 X23.833333 Y-24.666667 Z0.27451 F1000
G01 X23 Y-24.666667 Z0.27451 F1000
G01 X22.583333 Y-24.666667 Z0.313725 F1000
G01 X21.75 Y-24.666667 Z0.313725 F1000
G01 X21.333333 Y-24.666667 Z0.156863 F1000
G01 X20.916667 Y-24.666667 Z0.026144 F1000
G01 X16.333333 Y-24.666667 Z0.026144 F1000
G01 X15.916667 Y-24.666667 Z0.169935 F1000
G01 X15.5 Y-24.666667 Z0.169935 F1000
G01 X15.083333 Y-24.666667 Z0.339869 F1000
G01 X14.25 Y-24.666667 Z0.339869 F1000
G01 X13.833333 Y-24.666667 Z0.300654 F1000
G01 X13.416667 Y-24.666667 Z0.248366 F1000
G01 X13 Y-24.666667 Z0.183007 F1000
G01 X12.583333 Y-24.666667 Z0.117647 F1000
G01 X11.333333 Y-24.666667 Z0.117647 F1000
G01 X10.916667 Y-24.666667 Z0.078431 F1000
G01 X10.5 Y-24.666667 Z0.052288 F1000
G01 X10.083333 Y-24.666667 Z0.052288 F1000
G01 X9.666667 Y-24.666667 Z0 F1000
G01 X0.5 Y-24.666667 Z0 F1000
G01 X0.5 Y-25.083333 Z0 F1000
G01 X0.5 Y-25.5 Z0 F1000
G01 X11.75 Y-25.5 Z0 F1000
G01 X12.166667 Y-25.5 Z0.052288 F1000
G01 X12.583333 Y-25.5 Z0.117647 F1000
G01 X13 Y-25.5 Z0.130719 F1000
G01 X13.416667 Y-25.5 Z0.300654 F1000
G01 X15.083333 Y-25.5 Z0.300654 F1000
G01 X15.5 Y-25.5 Z0.169935 F1000
G01 X15.916667 Y-25.5 Z0.026144 F1000
G01 X16.75 Y-25.5 Z0.026144 F1000
G01 X17.166667 Y-25.5 Z0.169935 F1000
G01 X17.583333 Y-25.5 Z0.222222 F1000
G01 X18 Y-25.5 Z0.222222 F1000
G01 X18.416667 Y-25.5 Z0.287582 F1000
G01 X19.666667 Y-25.5 Z0.287582 F1000
G01 X20.083333 Y-25.5 Z0.026144 F1000
G01 X21.75 Y-25.5 Z0.026144 F1000
G01 X22.166667 Y-25.5 Z0.169935 F1000
G01 X22.583333 Y-25.5 Z0.169935 F1000
G01 X23 Y-25.5 Z0.27451 F1000
G01 X23.416667 Y-25.5 Z0.339869 F1000
G01 X24.25 Y-25.5 Z0.339869 F1000
G01 X24.666667 Y-25.5 Z0.287582 F1000
G01 X25.083333 Y-25.5 Z0.339869 F1000
G01 X25.916667 Y-25.5 Z0.339869 F1000
G01 X26.333333 Y-25.5 Z0.313725 F1000
G01 X26.75 Y-25.5 Z0.156863 F1000
G01 X27.166667 Y-25.5 Z0.026144 F1000
G01 X35.083333 Y-25.5 Z0.026144 F1000
G01 X35.5 Y-25.5 Z0.156863 F1000
G01 X35.916667 Y-25.5 Z0.313725 F1000
G01 X36.75 Y-25.5 Z0.313725 F1000
G01 X37.166667 Y-25.5 Z0.20915 F1000
G01 X37.583333 Y-25.5 Z0.130719 F1000
G01 X41.333333 Y-25.5 Z0.130719 F1000
G01 X41.75 Y-25.5 Z0.27451 F1000
G01 X42.166667 Y-25.5 Z0.470588 F1000
G01 X42.583333 Y-25.5 Z0.470588 F1000
G01 X43 Y-25.5 Z0.48366 F1000
G01 X43.833333 Y-25.5 Z0.48366 F1000
G01 X44.25 Y-25.5 Z0.196078 F1000
G01 X44.666667 Y-25.5 Z0.196078 F1000
G01 X45.083333 Y-25.5 Z0.48366 F1000
G01 X46.75 Y-25.5 Z0.48366 F1000
G01 X47.166667 Y-25.5 Z0.261438 F1000
G01 X47.583333 Y-25.5 Z0.261438 F1000
G01 X48 Y-25.5 Z0.130719 F1000
G01 X50.916667 Y-25.5 Z0.130719 F1000
G01 X51.333333 Y-25.5 Z0.300654 F1000
G01 X52.166667 Y-25.5 Z0.300654 F1000
G01 X52.583333 Y-25.5 Z0.169935 F1000
G01 X53 Y-25.5 Z0.026144 F1000
G01 X53.833333 Y-25.5 Z0.026144 F1000
G01 X54.25 Y-25.5 Z0.169935 F1000
G01 X54.666667 Y-25.5 Z0.169935 F1000
G01 X55.083333 Y-25.5 Z0.248366 F1000
G01 X55.916667 Y-25.5 Z0.248366 F1000
G01 X56.333333 Y-25.5 Z0.130719 F1000
G01 X58.833333 Y-25.5 Z0.130719 F1000
G01 X59.25 Y-25.5 Z0.183007 F1000
G01 X59.666667 Y-25.5 Z0.48366 F1000
G01 X63 Y-25.5 Z0.48366 F1000
G01 X63.416667 Y-25.5 Z0.470588 F1000
G01 X64.666667 Y-25.5 Z0.470588 F1000
G01 X65.083333 Y-25.5 Z0.20915 F1000
G01 X65.5 Y-25.5 Z0.130719 F1000
G01 X68.833333 Y-25.5 Z0.130719 F1000
G01 X69.25 Y-25.5 Z0.183007 F1000
G01 X69.666667 Y-25.5 Z0.287582 F1000
G01 X70.5 Y-25.5 Z0.287582 F1000
G01 X70.916667 Y-25.5 Z0.156863 F1000
G01 X71.333333 Y-25.5 Z0.026144 F1000
G01 X78 Y-25.5 Z0.026144 F1000
G01 X78.416667 Y-25.5 Z0.169935 F1000
G01 X78.833333 Y-25.5 Z0.313725 F1000
G01 X79.666667 Y-25.5 Z0.313725 F1000
G01 X80.083333 Y-25.5 Z0.248366 F1000
G01 X80.5 Y-25.5 Z0.339869 F1000
G01 X81.75 Y-25.5 Z0.339869 F1000
G01 X82.166667 Y-25.5 Z0.313725 F1000
G01 X82.583333 Y-25.5 Z0.156863 F1000
G01 X83 Y-25.5 Z0.026144 F1000
G01 X85.5 Y-25.5 Z0.026144 F1000
G01 X85.916667 Y-25.5 Z0.169935 F1000
G01 X86.333333 Y-25.5 Z0.169935 F1000
G01 X86.75 Y-25.5 Z0.313725 F1000
G01 X87.583333 Y-25.5 Z0.313725 F1000
G01 X88 Y-25.5 Z0.287582 F1000
G01 X88.416667 Y-25.5 Z0.183007 F1000
G01 X88.833333 Y-25.5 Z0.117647 F1000
G01 X89.25 Y-25.5 Z0 F1000
G01 X99.666667 Y-25.5 Z0 F1000
G01 X99.666667 Y-25.916667 Z0 F1000
G01 X99.666667 Y-26.333333 Z0 F1000
G01 X89.666667 Y-26.333333 Z0 F1000
G01 X89.25 Y-26.333333 Z0.052288 F1000
G01 X88.833333 Y-26.333333 Z0.20915 F1000
G01 X88.416667 Y-26.333333 Z0.313725 F1000
G01 X87.583333 Y-26.333333 Z0.313725 F1000
G01 X87.166667 Y-26.333333 Z0.287582 F1000
G01 X86.75 Y-26.333333 Z0.169935 F1000
G01 X86.333333 Y-26.333333 Z0.026144 F1000
G01 X82.166667 Y-26.333333 Z0.026144 F1000
G01 X81.75 Y-26.333333 Z0.156863 F1000
G01 X81.333333 Y-26.333333 Z0.339869 F1000
G01 X80.083333 Y-26.333333 Z0.339869 F1000
G01 X79.666667 Y-26.333333 Z0.287582 F1000
G01 X78.833333 Y-26.333333 Z0.287582 F1000
G01 X78.416667 Y-26.333333 Z0.169935 F1000
G01 X78 Y-26.333333 Z0.026144 F1000
G01 X71.333333 Y-26.333333 Z0.026144 F1000
G01 X70.916667 Y-26.333333 Z0.169935 F1000
G01 X70.5 Y-26.333333 Z0.313725 F1000
G01 X69.666667 Y-26.333333 Z0.313725 F1000
G01 X69.25 Y-26.333333 Z0.248366 F1000
G01 X68.833333 Y-26.333333 Z0.130719 F1000
G01 X64.666667 Y-26.333333 Z0.130719 F1000
G01 X64.25 Y-26.333333 Z0.183007 F1000
G01 X63.833333 Y-26.333333 Z0.27451 F1000
G01 X63.416667 Y-26.333333 Z0.470588 F1000
G01 X63 Y-26.333333 Z0.48366 F1000
G01 X60.916667 Y-26.333333 Z0.48366 F1000
G01 X60.5 Y-26.333333 Z0.287582 F1000
G01 X60.083333 Y-26.333333 Z0.248366 F1000
G01 X59.666667 Y-26.333333 Z0.130719 F1000
G01 X56.333333 Y-26.333333 Z0.130719 F1000
G01 X55.916667 Y-26.333333 Z0.27451 F1000
G01 X55.083333 Y-26.333333 Z0.27451 F1000
G01 X54.666667 Y-26.333333 Z0.169935 F1000
G01 X54.25 Y-26.333333 Z0.169935 F1000
G01 X53.833333 Y-26.333333 Z0.026144 F1000
G01 X53 Y-26.333333 Z0.026144 F1000
G01 X52.583333 Y-26.333333 Z0.169935 F1000
G01 X52.166667 Y-26.333333 Z0.313725 F1000
G01 X51.333333 Y-26.333333 Z0.313725 F1000
G01 X50.916667 Y-26.333333 Z0.261438 F1000
G01 X50.5 Y-26.333333 Z0.130719 F1000
G01 X47.166667 Y-26.333333 Z0.130719 F1000
G01 X46.75 Y-26.333333 Z0.20915 F1000
G01 X46.333333 Y-26.333333 Z0.27451 F1000
G01 X45.916667 Y-26.333333 Z0.48366 F1000
G01 X45.083333 Y-26.333333 Z0.48366 F1000
G01 X44.666667 Y-26.333333 Z0.261438 F1000
G01 X44.25 Y-26.333333 Z0.261438 F1000
G01 X43.833333 Y-26.333333 Z0.48366 F1000
G01 X43 Y-26.333333 Z0.48366 F1000
G01 X42.583333 Y-26.333333 Z0.287582 F1000
G01 X42.166667 Y-26.333333 Z0.20915 F1000
G01 X41.75 Y-26.333333 Z0.130719 F1000
G01 X37.583333 Y-26.333333 Z0.130719 F1000
G01 X37.166667 Y-26.333333 Z0.27451 F1000
G01 X36.333333 Y-26.333333 Z0.27451 F1000
G01 X35.916667 Y-26.333333 Z0.169935 F1000
G01 X35.5 Y-26.333333 Z0.026144 F1000
G01 X26.333333 Y-26.333333 Z0.026144 F1000
G01 X25.916667 Y-26.333333 Z0.222222 F1000
G01 X25.5 Y-26.333333 Z0.287582 F1000
G01 X25.083333 Y-26.333333 Z0.300654 F1000
G01 X24.25 Y-26.333333 Z0.300654 F1000
G01 X23.833333 Y-26.333333 Z0.339869 F1000
G01 X23 Y-26.333333 Z0.339869 F1000
G01 X22.583333 Y-26.333333 Z0.156863 F1000
G01 X22.166667 Y-26.333333 Z0.026144 F1000
G01 X20.916667 Y-26.333333 Z0.026144 F1000
G01 X20.5 Y-26.333333 Z0.169935 F1000
G01 X20.083333 Y-26.333333 Z0.169935 F1000
G01 X19.666667 Y-26.333333 Z0.287582 F1000
G01 X18.416667 Y-26.333333 Z0.287582 F1000
G01 X18 Y-26.333333 Z0.313725 F1000
G01 X17.166667 Y-26.333333 Z0.313725 F1000
G01 X16.75 Y-26.333333 Z0.261438 F1000
G01 X16.333333 Y-26.333333 Z0.261438 F1000
G01 X15.916667 Y-26.333333 Z0.300654 F1000
G01 X15.5 Y-26.333333 Z0.339869 F1000
G01 X14.666667 Y-26.333333 Z0.339869 F1000
G01 X14.25 Y-26.333333 Z0.300654 F1000
G01 X13.416667 Y-26.333333 Z0.300654 F1000
G01 X13 Y-26.333333 Z0.287582 F1000
G01 X12.583333 Y-26.333333 Z0.287582 F1000
G01 X12.166667 Y-26.333333 Z0.117647 F1000
G01 X11.75 Y-26.333333 Z0.117647 F1000
G01 X11.333333 Y-26.333333 Z0 F1000
G01 X0.5 Y-26.333333 Z0 F1000
G01 X0.5 Y-26.75 Z0 F1000
G01 X0.5 Y-27.166667 Z0 F1000
G01 X10.916667 Y-27.166667 Z0 F1000
G01 X11.333333 Y-27.166667 Z0.078431 F1000
G01 X11.75 Y-27.166667 Z0.091503 F1000
G01 X12.166667 Y-27.166667 Z0.300654 F1000
G01 X13.833333 Y-27.166667 Z0.300654 F1000
G01 X14.25 Y-27.166667 Z0.27451 F1000
G01 X14.666667 Y-27.166667 Z0.339869 F1000
G01 X15.5 Y-27.166667 Z0.339869 F1000
G01 X15.916667 Y-27.166667 Z0.300654 F1000
G01 X16.333333 Y-27.166667 Z0.261438 F1000
G01 X16.75 Y-27.166667 Z0.261438 F1000
G01 X17.166667 Y-27.166667 Z0.248366 F1000
G01 X17.583333 Y-27.166667 Z0.20915 F1000
G01 X18 Y-27.166667 Z0.183007 F1000
G01 X18.416667 Y-27.166667 Z0.20915 F1000
G01 X18.833333 Y-27.166667 Z0.313725 F1000
G01 X19.666667 Y-27.166667 Z0.313725 F1000
G01 X20.083333 Y-27.166667 Z0.169935 F1000
G01 X20.5 Y-27.166667 Z0.026144 F1000
G01 X21.75 Y-27.166667 Z0.026144 F1000
G01 X22.166667 Y-27.166667 Z0.222222 F1000
G01 X22.583333 Y-27.166667 Z0.27451 F1000
G01 X23 Y-27.166667 Z0.339869 F1000
G01 X23.833333 Y-27.166667 Z0.339869 F1000
G01 X24.25 Y-27.166667 Z0.313725 F1000
G01 X24.666667 Y-27.166667 Z0.313725 F1000
G01 X25.083333 Y-27.166667 Z0.169935 F1000
G01 X25.5 Y-27.166667 Z0.026144 F1000
G01 X35.5 Y-27.166667 Z0.026144 F1000
G01 X35.916667 Y-27.166667 Z0.169935 F1000
G01 X36.333333 Y-27.166667 Z0.313725 F1000
G01 X37.166667 Y-27.166667 Z0.313725 F1000
G01 X37.583333 Y-27.166667 Z0.27451 F1000
G01 X38 Y-27.166667 Z0.130719 F1000
G01 X50.083333 Y-27.166667 Z0.130719 F1000
G01 X50.5 Y-27.166667 Z0.300654 F1000
G01 X50.916667 Y-27.166667 Z0.339869 F1000
G01 X51.75 Y-27.166667 Z0.339869 F1000
G01 X52.166667 Y-27.166667 Z0.169935 F1000
G01 X52.583333 Y-27.166667 Z0.026144 F1000
G01 X54.25 Y-27.166667 Z0.026144 F1000
G01 X54.666667 Y-27.166667 Z0.156863 F1000
G01 X55.083333 Y-27.166667 Z0.313725 F1000
G01 X55.916667 Y-27.166667 Z0.313725 F1000
G01 X56.333333 Y-27.166667 Z0.261438 F1000
G01 X56.75 Y-27.166667 Z0.130719 F1000
G01 X68.416667 Y-27.166667 Z0.130719 F1000
G01 X68.833333 Y-27.166667 Z0.248366 F1000
G01 X69.25 Y-27.166667 Z0.287582 F1000
G01 X70.083333 Y-27.166667 Z0.287582 F1000
G01 X70.5 Y-27.166667 Z0.169935 F1000
G01 X70.916667 Y-27.166667 Z0.026144 F1000
G01 X77.583333 Y-27.166667 Z0.026144 F1000
G01 X78 Y-27.166667 Z0.169935 F1000
G01 X78.416667 Y-27.166667 Z0.27451 F1000
G01 X78.833333 Y-27.166667 Z0.287582 F1000
G01 X79.25 Y-27.166667 Z0.339869 F1000
G01 X80.083333 Y-27.166667 Z0.339869 F1000
G01 X80.5 Y-27.166667 Z0.27451 F1000
G01 X80.916667 Y-27.166667 Z0.222222 F1000
G01 X81.333333 Y-27.166667 Z0.026144 F1000
G01 X86.75 Y-27.166667 Z0.026144 F1000
G01 X87.166667 Y-27.166667 Z0.169935 F1000
G01 X87.583333 Y-27.166667 Z0.313725 F1000
G01 X88 Y-27.166667 Z0.339869 F1000
G01 X88.833333 Y-27.166667 Z0.339869 F1000
G01 X89.25 Y-27.166667 Z0.183007 F1000
G01 X89.666667 Y-27.166667 Z0.052288 F1000
G01 X90.083333 Y-27.166667 Z0 F1000
G01 X99.666667 Y-27.166667 Z0 F1000
G01 X99.666667 Y-27.583333 Z0 F1000
G01 X99.666667 Y-28 Z0 F1000
G01 X90.5 Y-28 Z0 F1000
G01 X90.083333 Y-28 Z0.052288 F1000
G01 X89.666667 Y-28 Z0.183007 F1000
G01 X89.25 Y-28 Z0.339869 F1000
G01 X88 Y-28 Z0.339869 F1000
G01 X87.583333 Y-28 Z0.169935 F1000
G01 X87.166667 Y-28 Z0.026144 F1000
G01 X80.916667 Y-28 Z0.026144 F1000
G01 X80.5 Y-28 Z0.222222 F1000
G01 X80.083333 Y-28 Z0.339869 F1000
G01 X78 Y-28 Z0.339869 F1000
G01 X77.583333 Y-28 Z0.169935 F1000
G01 X77.166667 Y-28 Z0.026144 F1000
G01 X70.5 Y-28 Z0.026144 F1000
G01 X70.083333 Y-28 Z0.169935 F1000
G01 X69.666667 Y-28 Z0.339869 F1000
G01 X68.833333 Y-28 Z0.339869 F1000
G01 X68.416667 Y-28 Z0.300654 F1000
G01 X68 Y-28 Z0.130719 F1000
G01 X57.583333 Y-28 Z0.130719 F1000
G01 X57.166667 Y-28 Z0.183007 F1000
G01 X56.75 Y-28 Z0.287582 F1000
G01 X56.333333 Y-28 Z0.313725 F1000
G01 X55.5 Y-28 Z0.313725 F1000
G01 X55.083333 Y-28 Z0.156863 F1000
G01 X54.666667 Y-28 Z0.026144 F1000
G01 X52.166667 Y-28 Z0.026144 F1000
G01 X51.75 Y-28 Z0.169935 F1000
G01 X51.333333 Y-28 Z0.313725 F1000
G01 X50.916667 Y-28 Z0.339869 F1000
G01 X50.083333 Y-28 Z0.339869 F1000
G01 X49.666667 Y-28 Z0.183007 F1000
G01 X49.25 Y-28 Z0.130719 F1000
G01 X38.833333 Y-28 Z0.130719 F1000
G01 X38.416667 Y-28 Z0.183007 F1000
G01 X38 Y-28 Z0.287582 F1000
G01 X37.583333 Y-28 Z0.313725 F1000
G01 X36.75 Y-28 Z0.313725 F1000
G01 X36.333333 Y-28 Z0.169935 F1000
G01 X35.916667 Y-28 Z0.026144 F1000
G01 X25.083333 Y-28 Z0.026144 F1000
G01 X24.666667 Y-28 Z0.169935 F1000
G01 X24.25 Y-28 Z0.27451 F1000
G01 X22.166667 Y-28 Z0.27451 F1000
G01 X21.75 Y-28 Z0.222222 F1000
G01 X21.333333 Y-28 Z0.026144 F1000
G01 X20.5 Y-28 Z0.026144 F1000
G01 X20.083333 Y-28 Z0.222222 F1000
G01 X19.666667 Y-28 Z0.313725 F1000
G01 X18.833333 Y-28 Z0.313725 F1000
G01 X18.416667 Y-28 Z0.183007 F1000
G01 X18 Y-28 Z0.117647 F1000
G01 X17.583333 Y-28 Z0 F1000
G01 X16.75 Y-28 Z0 F1000
G01 X16.333333 Y-28 Z0.117647 F1000
G01 X15.5 Y-28 Z0.117647 F1000
G01 X15.083333 Y-28 Z0.091503 F1000
G01 X14.666667 Y-28 Z0.130719 F1000
G01 X14.25 Y-28 Z0.20915 F1000
G01 X13.833333 Y-28 Z0.300654 F1000
G01 X13 Y-28 Z0.300654 F1000
G01 X12.583333 Y-28 Z0.287582 F1000
G01 X12.166667 Y-28 Z0.287582 F1000
G01 X11.75 Y-28 Z0.117647 F1000
G01 X11.333333 Y-28 Z0.117647 F1000
G01 X10.916667 Y-28 Z0 F1000
G01 X0.5 Y-28 Z0 F1000
G01 X0.5 Y-28.416667 Z0 F1000
G01 X0.5 Y-28.833333 Z0 F1000
G01 X10.916667 Y-28.833333 Z0 F1000
G01 X11.333333 Y-28.833333 Z0.117647 F1000
G01 X12.166667 Y-28.833333 Z0.117647 F1000
G01 X12.583333 Y-28.833333 Z0.078431 F1000
G01 X13.416667 Y-28.833333 Z0.078431 F1000
G01 X13.833333 Y-28.833333 Z0.065359 F1000
G01 X14.25 Y-28.833333 Z0.052288 F1000
G01 X14.666667 Y-28.833333 Z0 F1000
G01 X18 Y-28.833333 Z0 F1000
G01 X18.416667 Y-28.833333 Z0.104575 F1000
G01 X18.833333 Y-28.833333 Z0.300654 F1000
G01 X19.25 Y-28.833333 Z0.339869 F1000
G01 X20.083333 Y-28.833333 Z0.339869 F1000
G01 X20.5 Y-28.833333 Z0.169935 F1000
G01 X20.916667 Y-28.833333 Z0.026144 F1000
G01 X21.333333 Y-28.833333 Z0.169935 F1000
G01 X21.75 Y-28.833333 Z0.27451 F1000
G01 X22.166667 Y-28.833333 Z0.27451 F1000
G01 X22.583333 Y-28.833333 Z0.287582 F1000
G01 X23.416667 Y-28.833333 Z0.287582 F1000
G01 X23.833333 Y-28.833333 Z0.27451 F1000
G01 X24.25 Y-28.833333 Z0.169935 F1000
G01 X24.666667 Y-28.833333 Z0.026144 F1000
G01 X36.333333 Y-28.833333 Z0.026144 F1000
G01 X36.75 Y-28.833333 Z0.156863 F1000
G01 X37.166667 Y-28.833333 Z0.287582 F1000
G01 X37.583333 Y-28.833333 Z0.287582 F1000
G01 X38 Y-28.833333 Z0.313725 F1000
G01 X38.833333 Y-28.833333 Z0.313725 F1000
G01 X39.25 Y-28.833333 Z0.261438 F1000
G01 X39.666667 Y-28.833333 Z0.130719 F1000
G01 X48.416667 Y-28.833333 Z0.130719 F1000
G01 X48.833333 Y-28.833333 Z0.183007 F1000
G01 X49.25 Y-28.833333 Z0.313725 F1000
G01 X49.666667 Y-28.833333 Z0.339869 F1000
G01 X50.916667 Y-28.833333 Z0.339869 F1000
G01 X51.333333 Y-28.833333 Z0.156863 F1000
G01 X51.75 Y-28.833333 Z0.026144 F1000
G01 X55.083333 Y-28.833333 Z0.026144 F1000
G01 X55.5 Y-28.833333 Z0.169935 F1000
G01 X55.916667 Y-28.833333 Z0.287582 F1000
G01 X57.166667 Y-28.833333 Z0.287582 F1000
G01 X57.583333 Y-28.833333 Z0.27451 F1000
G01 X58 Y-28.833333 Z0.130719 F1000
G01 X67.166667 Y-28.833333 Z0.130719 F1000
G01 X67.583333 Y-28.833333 Z0.261438 F1000
G01 X68 Y-28.833333 Z0.313725 F1000
G01 X68.833333 Y-28.833333 Z0.313725 F1000
G01 X69.25 Y-28.833333 Z0.300654 F1000
G01 X69.666667 Y-28.833333 Z0.169935 F1000
G01 X70.083333 Y-28.833333 Z0.026144 F1000
G01 X77.166667 Y-28.833333 Z0.026144 F1000
G01 X77.583333 Y-28.833333 Z0.169935 F1000
G01 X78 Y-28.833333 Z0.339869 F1000
G01 X78.833333 Y-28.833333 Z0.339869 F1000
G01 X79.25 Y-28.833333 Z0.313725 F1000
G01 X79.666667 Y-28.833333 Z0.313725 F1000
G01 X80.083333 Y-28.833333 Z0.156863 F1000
G01 X80.5 Y-28.833333 Z0.026144 F1000
G01 X87.583333 Y-28.833333 Z0.026144 F1000
G01 X88 Y-28.833333 Z0.156863 F1000
G01 X88.416667 Y-28.833333 Z0.339869 F1000
G01 X89.25 Y-28.833333 Z0.339869 F1000
G01 X89.666667 Y-28.833333 Z0.287582 F1000
G01 X90.083333 Y-28.833333 Z0.117647 F1000
G01 X90.5 Y-28.833333 Z0.117647 F1000
G01 X90.916667 Y-28.833333 Z0 F1000
G01 X99.666667 Y-28.833333 Z0 F1000
G01 X99.666667 Y-29.25 Z0 F1000
G01 X99.666667 Y-29.666667 Z0 F1000
G01 X91.333333 Y-29.666667 Z0 F1000
G01 X90.916667 Y-29.666667 Z0.117647 F1000
G01 X90.5 Y-29.666667 Z0.117647 F1000
G01 X90.083333 Y-29.666667 Z0.248366 F1000
G01 X89.666667 Y-29.666667 Z0.313725 F1000
G01 X88.833333 Y-29.666667 Z0.313725 F1000
G01 X88.416667 Y-29.666667 Z0.222222 F1000
G01 X88 Y-29.666667 Z0.026144 F1000
G01 X79.666667 Y-29.666667 Z0.026144 F1000
G01 X79.25 Y-29.666667 Z0.169935 F1000
G01 X78.416667 Y-29.666667 Z0.169935 F1000
G01 X78 Y-29.666667 Z0.026144 F1000
G01 X69.666667 Y-29.666667 Z0.026144 F1000
G01 X69.25 Y-29.666667 Z0.169935 F1000
G01 X68.833333 Y-29.666667 Z0.313725 F1000
G01 X66.75 Y-29.666667 Z0.313725 F1000
G01 X66.333333 Y-29.666667 Z0.261438 F1000
G01 X65.916667 Y-29.666667 Z0.183007 F1000
G01 X65.5 Y-29.666667 Z0.130719 F1000
G01 X60.5 Y-29.666667 Z0.130719 F1000
G01 X60.083333 Y-29.666667 Z0.183007 F1000
G01 X59.666667 Y-29.666667 Z0.183007 F1000
G01 X59.25 Y-29.666667 Z0.248366 F1000
G01 X58.833333 Y-29.666667 Z0.287582 F1000
G01 X58.416667 Y-29.666667 Z0.313725 F1000
G01 X57.583333 Y-29.666667 Z0.313725 F1000
G01 X57.166667 Y-29.666667 Z0.287582 F1000
G01 X56.75 Y-29.666667 Z0.27451 F1000
G01 X56.333333 Y-29.666667 Z0.156863 F1000
G01 X55.916667 Y-29.666667 Z0.026144 F1000
G01 X50.916667 Y-29.666667 Z0.026144 F1000
G01 X50.5 Y-29.666667 Z0.222222 F1000
G01 X50.083333 Y-29.666667 Z0.313725 F1000
G01 X48.416667 Y-29.666667 Z0.313725 F1000
G01 X48 Y-29.666667 Z0.300654 F1000
G01 X47.583333 Y-29.666667 Z0.183007 F1000
G01 X47.166667 Y-29.666667 Z0.130719 F1000
G01 X41.333333 Y-29.666667 Z0.130719 F1000
G01 X40.916667 Y-29.666667 Z0.183007 F1000
G01 X40.5 Y-29.666667 Z0.300654 F1000
G01 X40.083333 Y-29.666667 Z0.313725 F1000
G01 X38 Y-29.666667 Z0.313725 F1000
G01 X37.583333 Y-29.666667 Z0.169935 F1000
G01 X37.166667 Y-29.666667 Z0.169935 F1000
G01 X36.75 Y-29.666667 Z0.026144 F1000
G01 X24.25 Y-29.666667 Z0.026144 F1000
G01 X23.833333 Y-29.666667 Z0.222222 F1000
G01 X23.416667 Y-29.666667 Z0.287582 F1000
G01 X22.583333 Y-29.666667 Z0.287582 F1000
G01 X22.166667 Y-29.666667 Z0.339869 F1000
G01 X21.333333 Y-29.666667 Z0.339869 F1000
G01 X20.916667 Y-29.666667 Z0.169935 F1000
G01 X20.5 Y-29.666667 Z0.222222 F1000
G01 X20.083333 Y-29.666667 Z0.339869 F1000
G01 X19.25 Y-29.666667 Z0.339869 F1000
G01 X18.833333 Y-29.666667 Z0.183007 F1000
G01 X18.416667 Y-29.666667 Z0.117647 F1000
G01 X18 Y-29.666667 Z0 F1000
G01 X0.5 Y-29.666667 Z0 F1000
G01 X0.5 Y-30.083333 Z0 F1000
G01 X0.5 Y-30.5 Z0 F1000
G01 X18 Y-30.5 Z0 F1000
G01 X18.416667 Y-30.5 Z0.117647 F1000
G01 X18.833333 Y-30.5 Z0.117647 F1000
G01 X19.25 Y-30.5 Z0.248366 F1000
G01 X19.666667 Y-30.5 Z0.339869 F1000
G01 X20.5 Y-30.5 Z0.339869 F1000
G01 X20.916667 Y-30.5 Z0.169935 F1000
G01 X21.333333 Y-30.5 Z0.339869 F1000
G01 X22.166667 Y-30.5 Z0.339869 F1000
G01 X22.583333 Y-30.5 Z0.287582 F1000
G01 X23 Y-30.5 Z0.287582 F1000
G01 X23.416667 Y-30.5 Z0.222222 F1000
G01 X23.833333 Y-30.5 Z0.026144 F1000
G01 X38.416667 Y-30.5 Z0.026144 F1000
G01 X38.833333 Y-30.5 Z0.169935 F1000
G01 X39.25 Y-30.5 Z0.313725 F1000
G01 X40.916667 Y-30.5 Z0.313725 F1000
G01 X41.333333 Y-30.5 Z0.300654 F1000
G01 X41.75 Y-30.5 Z0.248366 F1000
G01 X42.166667 Y-30.5 Z0.313725 F1000
G01 X43 Y-30.5 Z0.313725 F1000
G01 X43.416667 Y-30.5 Z0.287582 F1000
G01 X47.166667 Y-30.5 Z0.287582 F1000
G01 X47.583333 Y-30.5 Z0.313725 F1000
G01 X49.25 Y-30.5 Z0.313725 F1000
G01 X49.666667 Y-30.5 Z0.169935 F1000
G01 X50.083333 Y-30.5 Z0.026144 F1000
G01 X56.333333 Y-30.5 Z0.026144 F1000
G01 X56.75 Y-30.5 Z0.169935 F1000
G01 X57.166667 Y-30.5 Z0.169935 F1000
G01 X57.583333 Y-30.5 Z0.313725 F1000
G01 X58.833333 Y-30.5 Z0.313725 F1000
G01 X59.25 Y-30.5 Z0.339869 F1000
G01 X60.083333 Y-30.5 Z0.339869 F1000
G01 X60.5 Y-30.5 Z0.300654 F1000
G01 X60.916667 Y-30.5 Z0.300654 F1000
G01 X61.333333 Y-30.5 Z0.248366 F1000
G01 X61.75 Y-30.5 Z0.339869 F1000
G01 X62.583333 Y-30.5 Z0.339869 F1000
G01 X63 Y-30.5 Z0.287582 F1000
G01 X63.416667 Y-30.5 Z0.339869 F1000
G01 X64.25 Y-30.5 Z0.339869 F1000
G01 X64.666667 Y-30.5 Z0.248366 F1000
G01 X65.083333 Y-30.5 Z0.261438 F1000
G01 X65.5 Y-30.5 Z0.27451 F1000
G01 X65.916667 Y-30.5 Z0.339869 F1000
G01 X66.75 Y-30.5 Z0.339869 F1000
G01 X67.166667 Y-30.5 Z0.313725 F1000
G01 X67.583333 Y-30.5 Z0.313725 F1000
G01 X68 Y-30.5 Z0.169935 F1000
G01 X68.416667 Y-30.5 Z0.169935 F1000
G01 X68.833333 Y-30.5 Z0.026144 F1000
G01 X88 Y-30.5 Z0.026144 F1000
G01 X88.416667 Y-30.5 Z0.169935 F1000
G01 X88.833333 Y-30.5 Z0.222222 F1000
G01 X89.25 Y-30.5 Z0.313725 F1000
G01 X90.083333 Y-30.5 Z0.313725 F1000
G01 X90.5 Y-30.5 Z0.183007 F1000
G01 X90.916667 Y-30.5 Z0.117647 F1000
G01 X91.333333 Y-30.5 Z0 F1000
G01 X99.666667 Y-30.5 Z0 F1000
G01 X99.666667 Y-30.916667 Z0 F1000
G01 X99.666667 Y-31.333333 Z0 F1000
G01 X91.75 Y-31.333333 Z0 F1000
G01 X91.333333 Y-31.333333 Z0.117647 F1000
G01 X90.916667 Y-31.333333 Z0.117647 F1000
G01 X90.5 Y-31.333333 Z0.261438 F1000
G01 X90.083333 Y-31.333333 Z0.313725 F1000
G01 X89.25 Y-31.333333 Z0.313725 F1000
G01 X88.833333 Y-31.333333 Z0.169935 F1000
G01 X88.416667 Y-31.333333 Z0.026144 F1000
G01 X67.166667 Y-31.333333 Z0.026144 F1000
G01 X66.75 Y-31.333333 Z0.169935 F1000
G01 X64.666667 Y-31.333333 Z0.169935 F1000
G01 X64.25 Y-31.333333 Z0.339869 F1000
G01 X63.416667 Y-31.333333 Z0.339869 F1000
G01 X63 Y-31.333333 Z0.287582 F1000
G01 X62.583333 Y-31.333333 Z0.339869 F1000
G01 X61.75 Y-31.333333 Z0.339869 F1000
G01 X61.333333 Y-31.333333 Z0.169935 F1000
G01 X58.833333 Y-31.333333 Z0.169935 F1000
G01 X58.416667 Y-31.333333 Z0.026144 F1000
G01 X48.833333 Y-31.333333 Z0.026144 F1000
G01 X48.416667 Y-31.333333 Z0.169935 F1000
G01 X47.166667 Y-31.333333 Z0.169935 F1000
G01 X46.75 Y-31.333333 Z0.287582 F1000
G01 X43.416667 Y-31.333333 Z0.287582 F1000
G01 X43 Y-31.333333 Z0.313725 F1000
G01 X42.166667 Y-31.333333 Z0.313725 F1000
G01 X41.75 Y-31.333333 Z0.169935 F1000
G01 X40.083333 Y-31.333333 Z0.169935 F1000
G01 X39.666667 Y-31.333333 Z0.026144 F1000
G01 X23.833333 Y-31.333333 Z0.026144 F1000
G01 X23.416667 Y-31.333333 Z0.169935 F1000
G01 X23 Y-31.333333 Z0.222222 F1000
G01 X22.583333 Y-31.333333 Z0.287582 F1000
G01 X22.166667 Y-31.333333 Z0.287582 F1000
G01 X21.75 Y-31.333333 Z0.339869 F1000
G01 X20.916667 Y-31.333333 Z0.339869 F1000
G01 X20.5 Y-31.333333 Z0.300654 F1000
G01 X19.666667 Y-31.333333 Z0.300654 F1000
G01 X19.25 Y-31.333333 Z0.091503 F1000
G01 X18.833333 Y-31.333333 Z0.052288 F1000
G01 X18.416667 Y-31.333333 Z0 F1000
G01 X0.5 Y-31.333333 Z0 F1000
G01 X0.5 Y-31.75 Z0 F1000
G01 X0.5 Y-32.166667 Z0 F1000
G01 X18.833333 Y-32.166667 Z0 F1000
G01 X19.25 Y-32.166667 Z0.065359 F1000
G01 X19.666667 Y-32.166667 Z0.104575 F1000
G01 X20.083333 Y-32.166667 Z0.300654 F1000
G01 X20.5 Y-32.166667 Z0.313725 F1000
G01 X20.916667 Y-32.166667 Z0.339869 F1000
G01 X21.75 Y-32.166667 Z0.339869 F1000
G01 X22.166667 Y-32.166667 Z0.313725 F1000
G01 X22.583333 Y-32.166667 Z0.313725 F1000
G01 X23 Y-32.166667 Z0.169935 F1000
G01 X23.416667 Y-32.166667 Z0.026144 F1000
G01 X88.833333 Y-32.166667 Z0.026144 F1000
G01 X89.25 Y-32.166667 Z0.169935 F1000
G01 X89.666667 Y-32.166667 Z0.287582 F1000
G01 X90.5 Y-32.166667 Z0.287582 F1000
G01 X90.916667 Y-32.166667 Z0.104575 F1000
G01 X91.333333 Y-32.166667 Z0.065359 F1000
G01 X91.75 Y-32.166667 Z0 F1000
G01 X99.666667 Y-32.166667 Z0 F1000
G01 X99.666667 Y-32.583333 Z0 F1000
G01 X99.666667 Y-33 Z0 F1000
G01 X91.75 Y-33 Z0 F1000
G01 X91.333333 Y-33 Z0.013072 F1000
G01 X90.916667 Y-33 Z0.183007 F1000
G01 X90.5 Y-33 Z0.339869 F1000
G01 X89.666667 Y-33 Z0.339869 F1000
G01 X89.25 Y-33 Z0.169935 F1000
G01 X88.833333 Y-33 Z0.026144 F1000
G01 X23.416667 Y-33 Z0.026144 F1000
G01 X23 Y-33 Z0.169935 F1000
G01 X22.583333 Y-33 Z0.222222 F1000
G01 X22.166667 Y-33 Z0.261438 F1000
G01 X21.75 Y-33 Z0.261438 F1000
G01 X21.333333 Y-33 Z0.313725 F1000
G01 X20.5 Y-33 Z0.313725 F1000
G01 X20.083333 Y-33 Z0.20915 F1000
G01 X19.666667 Y-33 Z0.065359 F1000
G01 X19.25 Y-33 Z0 F1000
G01 X0.5 Y-33 Z0 F1000
G01 X0.5 Y-33.416667 Z0 F1000
G01 X0.5 Y-33.833333 Z0 F1000
G01 X19.666667 Y-33.833333 Z0 F1000
G01 X20.083333 Y-33.833333 Z0.117647 F1000
G01 X20.5 Y-33.833333 Z0.20915 F1000
G01 X20.916667 Y-33.833333 Z0.20915 F1000
G01 X21.333333 Y-33.833333 Z0.287582 F1000
G01 X22.166667 Y-33.833333 Z0.287582 F1000
G01 X22.583333 Y-33.833333 Z0.222222 F1000
G01 X23 Y-33.833333 Z0.026144 F1000
G01 X88.833333 Y-33.833333 Z0.026144 F1000
G01 X89.25 Y-33.833333 Z0.169935 F1000
G01 X89.666667 Y-33.833333 Z0.339869 F1000
G01 X90.5 Y-33.833333 Z0.339869 F1000
G01 X90.916667 Y-33.833333 Z0.183007 F1000
G01 X91.333333 Y-33.833333 Z0.013072 F1000
G01 X91.75 Y-33.833333 Z0 F1000
G01 X99.666667 Y-33.833333 Z0 F1000
G01 X99.666667 Y-34.25 Z0 F1000
G01 X99.666667 Y-34.666667 Z0 F1000
G01 X91.75 Y-34.666667 Z0 F1000
G01 X91.333333 Y-34.666667 Z0.117647 F1000
G01 X90.916667 Y-34.666667 Z0.117647 F1000
G01 X90.5 Y-34.666667 Z0.300654 F1000
G01 X89.666667 Y-34.666667 Z0.300654 F1000
G01 X89.25 Y-34.666667 Z0.156863 F1000
G01 X88.833333 Y-34.666667 Z0.026144 F1000
G01 X23 Y-34.666667 Z0.026144 F1000
G01 X22.583333 Y-34.666667 Z0.222222 F1000
G01 X22.166667 Y-34.666667 Z0.300654 F1000
G01 X21.333333 Y-34.666667 Z0.300654 F1000
G01 X20.916667 Y-34.666667 Z0.130719 F1000
G01 X20.5 Y-34.666667 Z0.117647 F1000
G01 X20.083333 Y-34.666667 Z0.117647 F1000
G01 X19.666667 Y-34.666667 Z0 F1000
G01 X0.5 Y-34.666667 Z0 F1000
G01 X0.5 Y-35.083333 Z0 F1000
G01 X0.5 Y-35.5 Z0 F1000
G01 X20.083333 Y-35.5 Z0 F1000
G01 X20.5 Y-35.5 Z0.117647 F1000
G01 X20.916667 Y-35.5 Z0.117647 F1000
G01 X21.333333 Y-35.5 Z0.261438 F1000
G01 X22.166667 Y-35.5 Z0.261438 F1000
G01 X22.583333 Y-35.5 Z0.222222 F1000
G01 X23 Y-35.5 Z0.026144 F1000
G01 X88.416667 Y-35.5 Z0.026144 F1000
G01 X88.833333 Y-35.5 Z0.222222 F1000
G01 X89.25 Y-35.5 Z0.313725 F1000
G01 X90.083333 Y-35.5 Z0.313725 F1000
G01 X90.5 Y-35.5 Z0.248366 F1000
G01 X90.916667 Y-35.5 Z0.117647 F1000
G01 X91.333333 Y-35.5 Z0.117647 F1000
G01 X91.75 Y-35.5 Z0 F1000
G01 X99.666667 Y-35.5 Z0 F1000
G01 X99.666667 Y-35.916667 Z0 F1000
G01 X99.666667 Y-36.333333 Z0 F1000
G01 X91.333333 Y-36.333333 Z0 F1000
G01 X90.916667 Y-36.333333 Z0.117647 F1000
G01 X90.5 Y-36.333333 Z0.117647 F1000
G01 X90.083333 Y-36.333333 Z0.300654 F1000
G01 X89.25 Y-36.333333 Z0.300654 F1000
G01 X88.833333 Y-36.333333 Z0.27451 F1000
G01 X88.416667 Y-36.333333 Z0.222222 F1000
G01 X88 Y-36.333333 Z0.026144 F1000
G01 X81.75 Y-36.333333 Z0.026144 F1000
G01 X81.333333 Y-36.333333 Z0.169935 F1000
G01 X80.083333 Y-36.333333 Z0.169935 F1000
G01 X79.666667 Y-36.333333 Z0.339869 F1000
G01 X78.833333 Y-36.333333 Z0.339869 F1000
G01 X78.416667 Y-36.333333 Z0.27451 F1000
